!!!!SEGMENT: 047-1-BH.krn
!!!COM: Chopin, Fryderyk
!!!OTL: 3|me BALLADE
!!!OPS: Op. 47
!!!PTL: BALLADE | pour le Piano
!!!PPR: Breitkopf & Härtel
!!!PPP: Leipzig
!!!AGN: Ballade
!!!NIFC-rismID:  1001013816
!!!NIFC-shelfmark: PL-Wbfc 3944/n
!!!OMD: Allegretto.
**kern	**fing	**kern	**fing	**dynam
*part1	*	*part1	*	*part1
*staff2	*	*staff1	*	*
*clefF4	*	*clefG2	*	*
*kcancel	*	*kcancel	*	*
*k[b-e-a-d-]	*	*k[b-e-a-d-]	*	*
*A-:	*	*A-:	*	*
*M6/8	*	*M6/8	*	*
=1	=1	=1	=1	=1
!	!	!LO:TX:i:t=mezza voce.	!	!
4r	.	(>4e-	.	<
8r	.	8f 8dn	.	.
8d-X>L	.	8g 8e-L	.	.
8c	.	8a- 8e-	.	.
8GJ	.	8b- 8e-J	.	.
=2	=2	=2	=2	=2
*^	*	*	*	*
4.ryy	4A-	.	4cc/) 4e-/	.	[
.	8dn 8Bn 8E-	.	(>8ff 8a- 8f	.	.
4.c	4.E-	.	[>4.ee- 4.a- 4.e-\)	.	.
*v	*v	*	*	*	*
=3	=3	=3	=3	=3
*	*	*^	*	*
(>8d-XL	.	2.ee-]	4.g 4.e-	.	.
8c	.	.	.	.	.
8B-J	.	.	.	.	.
!	!	!	!LO:S:s=1:note:problem:note-level slur	!	!
8B-Lm=M	.	.	(>4.dd- 4.g 4.e-	.	.
8An	.	.	.	.	.
8B-J	.	.	.	.	.
*	*	*v	*v	*	*
=4	=4	=4	=4	=4
!	!	!LO:S:s=1:note:problem:note-level slur	!	!
8cL	.	2.ee-) 2.cc 2.a- 2.e-	.	.
8.A-	.	.	.	.
16E-Jk	.	.	.	.
4.E-)	.	.	.	.
=5	=5	=5	=5	=5
*^	*	*^	*	*
4G	(<4EE-	.	[>2.e-	4d-\	.	.
8A-	8FF	.	.	2ryy	.	.
8B-L	8GGL	.	.	.	.	.
8c	8AA-	.	.	.	.	.
8GJ	8BB-J	.	.	.	.	.
*v	*v	*	*	*	*	*
*	*	*v	*v	*	*
=6	=6	=6	=6	=6
4C\	.	4e-] 4A-<	.	.
8F	.	8dn 8Bn< 8A-<	.	.
4.E-)	.	[>4.e- [>4.c< [>4.A-<	.	.
=7	=7	=7	=7	=7
[>4.E-	.	(>8e-L] 8c] 8A-<]	.	<
.	.	8a- 8e- 8c	.	.
.	.	8b-J 8e- 8d-	.	.
4E-]	.	4cc 4a- 4e-	.	.
(>8EE-	.	8b- 8e- 8d-	.	[[
!!LO:LB:g=original
=8	=8	=8	=8	=8
4AA-	.	4cc 4a- 4e-	.	>
8E-	.	8a- 8e- 8c	.	.
!	!	!LO:TX:t=P:w pierwodruku brak początku łuku:problem	!	!
4A-)	.	4a-) 4e- 4c	.	]
8r	.	8r	.	.
*	*	*ped	*	*
=9	=9	=9	=9	=9
8AA- 8AAA-'	.	4.aaa- 4.aa-^<	.	f
8r	.	.	.	.
*clefG2	*	*	*	*
(>8ee- 8a- 8g-X	.	.	.	.
!LO:S:s=1:note:problem:note-level slur	!	!	!	!
4ddn/ 4a-/ 4f)/	.	4r	.	.
*	*	*Xped	*	*
8r	.	8r	.	.
*clefF4	*	*	*	*
=10	=10	=10	=10	=10
*	*	*ped	*	*
8AA-' 8AAA-	.	4.aa- 4.a-^<	.	.
8r	.	.	.	.
8d- 8A- 8F-X	.	.	.	.
8c 8A- 8E-	.	8r	.	.
4r	.	16r	.	<
.	.	(</16ccKL 16c/	.	.
*	*	*Xped	*	*
.	.	8ffJ 8f)	.	[
*	*	*ped	*	*
=11	=11	=11	=11	=11
8EE- 8EEE-	.	8r	.	p
8r	.	16r	.	.
.	.	(</16ee-KL 16e-/	.	.
(>8cL 8E-	.	8ee-J 8e-)	.	.
8BnJ 8F 8Dn)	.	8ryy	.	.
*	*	*Xped	*	*
.	.	.	.	.
4r	.	16r	.	.
.	.	(</16ee-KL 16e-/	.	.
.	.	8ee-J 8e-)	.	.
=12	=12	=12	=12	=12
*	*	*ped	*	*
8EE-L\	.	8r	.	.
8r	.	16r	.	.
.	.	(</16ee-KL 16e-/	.	.
(>8BnJ 8F 8Dn	.	8ee-J 8e-)	.	.
4B-X 4G 4D-X)	.	8r	.	.
*	*	*Xped	*	*
.	.	16r	.	.
.	.	(</16ee-KL 16e-/	.	.
8r	.	8ee-J 8e-)	.	.
!!LO:LB:g=original
=13	=13	=13	=13	=13
*	*	*	*	*^
!	!	!	!	!	!LO:DY:b=2:rj
8AA- 8AAA-	.	4.aaa- 4.aa-^<	.	f	p
16r	.	.	.	.	.
*clefG2	*	*	*	*	*
(>16ee-KL 16a- 16g-X	.	.	.	.	.
8ee-J 8a- 8g-	.	.	.	.	.
!LO:S:s=1:note:problem:note-level slur	!	!	!	!	!
4ddn/) 4a-/ 4f/	.	4r	.	.	.
8r	.	8r	.	.	.
*clefF4	*	*	*	*	*
*	*	*	*	*v	*v
=14	=14	=14	=14	=14
*	*	*ped	*	*
8AA- 8AAA-'	.	4.aa- 4.a-^<	.	.
16r	.	.	.	.
(>16d-KL 16A- 16F-X	.	.	.	.
8d-J 8A- 8F-	.	.	.	.
8c 8A- 8E-)	.	16r	.	.
*	*	*Xped	*	*
!	!	!LO:TX:t=P:powinno być "8", a nie "7":problem	!	!
!	!	!LO:TX:t=P:note-head-side tuplet number:problem	!	!
.	.	(</112%5ccL 112%5c/	.	<
.	.	112%5dd- 112%5d-	.	.
4r	.	.	.	.
.	.	112%5ddn 112%5dn	.	.
.	.	112%5ee- 112%5e-	.	.
.	.	112%5een 112%5en	.	.
.	.	112%5gg 112%5g	.	.
.	.	224%5r	.	.
.	.	224%5ffJk 224%5f)	.	[[
=15	=15	=15	=15	=15
*	*	*ped	*	*
8EE-' 8EEE-	.	(>8.ffL 8.f\	.	.
8r	.	.	.	.
.	.	16ee-k 16e-	.	.
(>8cKL 8E-	.	8ee-J 8e-)	.	.
.	.	.	.	.
8BnJ 8F 8Dn)	.	8ryy	.	.
*	*	*Xped	*	*
4r	.	16r	.	.
.	.	(>/16ee-KL 16e-/	.	>
.	.	[>8ee-J [<8e-	.	.
=16	=16	=16	=16	=16
*	*	*ped	*	*
8EE-'L\	.	8.ee-/L] 8.e-]/	.	.
8r	.	.	.	.
.	.	16ee-k 16e-	.	]
(>8BnJ 8F 8Dn	.	8ee-J 8e-)	.	.
4B-X 4G 4D-X)	.	8ryy	.	.
.	.	16r	.	.
*	*	*Xped	*	*
.	.	(>/16ee-KL 16e-/	.	>
8ryy	.	[>8ee-J [<8e-	.	.
!!LO:LB:g=original
=17	=17	=17	=17	=17
*	*	*ped	*	*
8AA-'L 8AAA-\	.	8.ee-/L] 8.e-]/	.	]
8r	.	.	.	.
.	.	16a-k	.	.
(>8A-J 8G- 8C	.	[>8ffJ [<8f	.	.
4.A- 4.F 4.BBn)	.	8.ff/L] 8.f]/	.	.
*	*	*Xped	*	*
.	.	16ee-k 16e-	.	.
.	.	8ddnJ 8dn)	.	.
=18	=18	=18	=18	=18
*	*	*ped	*	*
8AA-L 8AAA-'\	.	8r	.	.
8r	.	16r	.	.
.	.	(</16dd-XKL	.	.
(>8B-J 8E- 8AA-	.	8dd-J 8g 8d-)	.	.
4.A- 4.E- 4.AA-)	.	8r	.	.
*	*	*Xped	*	*
.	.	16r	.	.
.	.	16cc/KL 16a-/ (<16c/	.	.
.	.	8dd-J 8a- 8d-)	.	.
=19	=19	=19	=19	=19
*	*	*^	*	*
*	*	*ped	*	*	*
8FF 8FFF'	.	(>8.ccL 8.a- 8.c/	4ryy	.	.
8r	.	.	.	.	.
*	*	*Xped	*	*	*
.	.	16b-Jk	.	.	.
!	!	!LO:TX:a:i:t=ten.	!	!	!
(</8G 8GG/	.	2b-	8a- 8dn 8B-	.	.
4F/ 4FF)/	.	.	8rb	.	.
.	.	.	16rb	.	.
.	.	.	16a-KL 16d 16B-	.	.
8r	.	.	8a-J 8d 8B-	.	.
=20	=20	=20	=20	=20	=20
*	*	*ped	*	*	*
8EE- 8EEE-	.	4.b-)	8re	.	.
8r	.	.	16re	.	.
*	*	*Xped	*	*	*
.	.	.	16g/KL 16d-X/ 16B-/	.	.
(</8F 8FF/	.	.	8gJ 8d- 8B-	.	.
4E-/ 4EE-)/	.	4.ryy	8rb	.	.
.	.	.	16rb	.	.
.	.	.	(>16e-KL 16d- 16G	.	.
8r	.	.	8e-J 8d- 8G	.	.
*	*	*v	*v	*	*
=21	=21	=21	=21	=21
!	!	!LO:S:s=1:note:problem:note-level slur	!	!
*	*	*ped	*	*
8AA- 8AAA-	.	8a-) 8c 8A-'	.	.
16r	.	16r	.	.
(>16g-XL 16A- 16G-X'	.	(>16eee-KL 16aa- 16ee-	.	.
8g-J 8A- 8G-	.	[>8eee-J [>8aa- 8ee-	.	>
4f 4A- 4F)	.	8.eee-L] 8.aa-] 8.ee-)	.	]
*	*	*Xped	*	*
.	.	(>16dddnk 16ddn	.	<
8r	.	8aaa-J) 8aa-	.	[
!!LO:LB:g=original
=22	=22	=22	=22	=22
*ped	*	*	*	*
8AA- 8AAA-'	.	8r	.	.
16r	.	16r	.	.
16f-XKL 16A- 16F-X'	.	(>16ddd-XKL 16aa- 16dd-X	.	.
!	!	!LO:TX:t=P:diminuendolike accent:problem	!	!
(>8f-J 8A- 8F-	.	[>8ddd-J [>8aa- [<8dd-^<	.	.
4e- 4A- 4E-)	.	8.ddd-L] [<8.aa-] 8.dd-]	.	.
*Xped	*	*	*	*
.	.	16ccck 16cc	.	.
.	.	8qeee- 8qaa- 8qee-/	.	.
8r	.	8ddd-J 8aa- 8dd-	.	.
=23	=23	=23	=23	=23
*	*	*^	*	*
*ped	*	*	*	*	*
8FF 8FFF	.	4ryy	8.cccL 8.aa- 8.cc	.	.
16r	.	.	.	.	.
16g'KL 16G'	.	.	16bb-k 16aa- 16ddn 16b-	.	.
!	!	!LO:TX:a:i:t=ten.	!LO:TX:t=P:diminuendolike accent:problem	!	!
(>8gJ 8G	.	2bb-	8aa-J 8dd 8b-^<	.	.
4f 4F)	.	.	8rb	.	.
*Xped	*	*	*	*	*
.	.	.	16rb	.	.
.	.	.	16aa-KL 16dd 16b-	.	.
8r	.	.	8aa-J 8dd 8b-	.	.
*ped	*	*	*	*	*
=24	=24	=24	=24	=24	=24
8EE- 8EEE-	.	4.bb-)	8rb	.	.
16r	.	.	16rb	.	.
16fKL 16F	.	.	16ggKL 16dd- 16b-	.	.
8fJ 8F	.	.	8ggJ 8dd- 8b-	.	.
4e- 4E-	.	4.ryy	8rb	.	.
*Xped	*	*	*	*	*
.	.	.	16rb	.	.
.	.	.	(>16ee-KL 16dd- 16g	.	.
8r	.	.	8ee-J 8dd- 8g	.	.
*	*	*v	*v	*	*
=25	=25	=25	=25	=25
*ped	*	*	*	*
8AA- 8AAA-	.	8aa- 8cc 8a-)	.	.
16r	.	16r	.	.
!	!	!LO:TX:t=cresc. _:problem:dynamics with extention lines	!	!
!	!	!	!	!LO:HP:i:t=cres:ext=ud
16g-XKL 16G-X	.	16ggg-XKL 16gg-X	.	<
8g-J 8G-	.	8ggg-J 8gg-	.	.
*Xped	*	*	*	*
!	!	!LO:TX:t=P:diminuendolike accent:problem	!	!
4.g- 4.G-	.	4.ggg- 4.gg-^<	.	.
=26	=26	=26	=26	=26
.	.	16qqf/LL	.	.
.	.	16qqg-/JJ	.	.
*ped	*	*	*	*
4.e- 4.c 4.B-	.	4.g-T	.	.
*Xped	*	*	*	*
.	.	.	.	.
*ped	*	*	*	*
(>16e-LL	.	(16fLL	.	.
16c	.	16an	.	.
16An	.	16cc	.	.
16FJ	.	16ffJ	.	.
*Xped	*	*	*	*
8FFJ)	.	8fffJ	.	.
=27	=27	=27	=27	=27
*ped	*	*	*	*
8BB- 8BBB-	.	8bbb-') 8bb-	.	.
16r	.	16r	.	.
16fKL 16dn 16A-	.	16aa-KL 16a-	.	.
8fJ 8d 8A-	.	8aa-J 8a-	.	.
*Xped	*	*	*	*
!	!	!LO:TX:t=P:diminuendolike accent:problem	!	!
8f 8d 8A-	.	4.aa- 4.a-^<	.	.
16r	.	.	.	.
*ped	*	*	*	*
16BBnKL 16BBBn	.	.	.	.
8BBJ 8BBB	.	.	.	.
!!LO:PB:g=original
=28	=28	=28	=28	=28
.	.	16qqg/LL	.	.
.	.	16qqa-/JJ	.	.
4.BBn 4.BBBn	.	(>4.a-T^</	.	.
*Xped	*	*	*	*
.	.	.	.	.
*ped	*	*	*	*
(>16fLL	.	16gLL	.	.
16dn	.	16bn	.	.
16Bn	.	16ddn	.	.
16GJ	.	16ggJ	.	.
8GGJ)	.	8gggJ	.	.
*Xped	*	*	*	*
.	.	.	.	.
=29	=29	=29	=29	=29
*ped	*	*	*	*
8C 8CC	.	8aaa-) 8aa-	.	.
8r	.	8r	.	.
*Xped	*	*	*	*
(>8en 8G	.	(>8a-^<T/	.	.
*ped	*	*	*	*
16fLL	.	16gLL	.	.
16dn	.	16bn	.	[[
!	!	!LO:TX:t=dim _:problem:dynamics with extention lines 	!	!
!	!	!	!	!LO:HP:b:t=dim:ext=ud
16Bn	.	16ddn	.	>
16GJ	.	16ggJ	.	.
8GGJ)	.	8gggJ	.	.
*Xped	*	*	*	*
.	.	.	.	.
=30	=30	=30	=30	=30
*ped	*	*	*	*
8C 8CC	.	8cccc) 8ccc	.	.
8r	.	8r	.	.
(>8en 8G	.	(>8a-^<T/	.	.
*Xped	*	*	*	*
.	.	.	.	.
*ped	*	*	*	*
16fLL	.	16gLL	.	.
16dn	.	16bn	.	.
16Bn	.	16ddn	.	.
16GJ	.	16ggJ	.	.
8GGJ)	.	8gggJ	.	.
*Xped	*	*	*	*
.	.	.	.	.
=31	=31	=31	=31	=31
*ped	*	*	*	*
*	*	*8va	*	*
8C 8CC	.	8eeeen 8cccc 8eeen)	.	.
8r	.	8r	.	.
*	*	*X8va	*	*
!	!	!LO:TX:a:t=loco.	!	!
(>8en 8G	.	(>8an^<t/	.	.
*Xped	*	*	*	*
.	.	.	.	.
*ped	*	*	*	*
16fLL	.	16gLL	.	.
16dn	.	16bn	.	.
16Bn	.	16ddn	.	.
16GJ	.	16ggJ	.	.
*Xped	*	*	*	*
8GGJ)	.	8gggJ	.	.
!!LO:LB:g=original
=32	=32	=32	=32	=32
*ped	*	*	*	*
*	*	*8va	*	*
8C 8CC	.	8eeeen 8cccc 8eeen)	.	.
8r	.	8r	.	.
*Xped	*	*X8va	*	*
!	!	!LO:TX:a:t=loco.	!	!
(>8en 8G	.	(>8an^<t/	.	.
*ped	*	*	*	*
16fLL	.	16gLL	.	.
16dn	.	16bn	.	.
16Bn	.	16ddn	.	.
16GJ	.	16ggJ	.	.
*Xped	*	*	*	*
8GGJ)	.	8gggJ	.	]
=33	=33	=33	=33	=33
*ped	*	*	*	*
*	*	*8va	*	*
(>8C 8CC	.	8eeeen 8cccc 8eeen)	.	.
*	*	*X8va	*	*
!	!	!LO:TX:a:t=loco	!	!
4r	.	(>16enLL\	.	.
.	.	16ddn 16g	.	.
.	.	16cc	.	.
.	.	16gJJ	.	.
[>4.en [>4.G [<4.C	.	16ffLL 16cc	.	.
.	.	16een	.	.
.	.	16cc	.	.
.	.	16aan 16ee	.	.
.	.	16gg	.	.
.	.	16eeJJ	.	.
=34	=34	=34	=34	=34
*^	*	*	*	*
*	*	*	*8va	*	*
4.ryy	4.enX] 4.G] 4.C]	.	16dddnLL 16gg	.	.
.	.	.	16ccc	.	.
.	.	.	16gg	.	.
.	.	.	16fff 16ccc	.	.
*Xped	*	*	*	*	*
.	.	.	16eeen	.	.
.	.	.	16cccJJ	.	.
*ped	*	*	*	*	*
4f	4.c 4.G	.	16aaanLL 16eee	.	.
.	.	.	16ggg	.	.
.	.	.	16eee	.	.
.	.	.	16ddddn 16ggg	.	.
8eny	.	.	16cccc	.	.
*Xped	*	*	*	*	*
.	.	.	16gggJJ	.	.
*v	*v	*	*	*	*
=35	=35	=35	=35	=35
*ped	*	*	*	*
4c 4En 4C)	.	16ffffLL 16cccc	.	>
.	.	16eeeen	.	.
.	.	16cccc	.	.
.	.	16ggg	.	.
8r	.	16eee	.	.
.	.	16cccJJ	.	.
*	*	*X8va	*	*
!	!	!LO:TX:a:t=loco	!	!
4r	.	16ggLL\	.	.
.	.	16ee\	.	.
.	.	16cc\	.	.
.	.	16g\	.	.
8r	.	16c\	.	.
.	.	16GJJ)/	.	]
!!LO:LB:g=original
=36	=36	=36	=36	=36
[<4.CC [4.CCC	.	2.rdd	.	.
*Xped	*	*	*	*
.	.	.	.	.
(<8CCL] 8CCC]	.	.	.	.
8DD- 8DDD-	.	.	.	.
8DDnJ 8DDDn)	.	.	.	.
=37	=37	=37	=37	=37
*ped	*	*	*	*
8EE- 8EEE-	.	(>4e-	.	<
4r	.	.	.	.
.	.	8f 8dn	.	.
*Xped	*	*	*	*
8d-XL	.	8g 8e-L	.	.
8c	.	8a- 8e-	.	.
8GJ	.	8b-J 8e-	.	.
=38	=38	=38	=38	=38
4A-	.	4cc/ 4e-/	.	[
(>8dn 8Bn 8E-	.	8ff 8a- 8f	.	.
4.e- 4.c 4.E-	.	[>4.ee- 4.a-	.	.
=39	=39	=39	=39	=39
*	*	*^	*	*
8d-L	.	2.ee-_	4.g 4.e-	.	.
8c	.	.	.	.	.
8B-J	.	.	.	.	.
8B-LM	.	.	4.dd- 4.g 4.e-	.	.
8An	.	.	.	.	.
8B-J	.	.	.	.	.
*	*	*v	*v	*	*
=40	=40	=40	=40	=40
8cL	.	2.ee-]) 2.cc 2.a- 2.e-	.	.
8.A-	.	.	.	.
16E-Jk	.	.	.	.
4.E-)	.	.	.	.
=41	=41	=41	=41	=41
*^	*	*	*	*
!	!	!	!LO:TX:t=cresc. _:problem:dynamics with extention lines 	!	!
!	!	!	!	!	!LO:HP:i:t=cresc.:ext=ud
4G	4EE-	.	(>[<2.e- 2.d-	.	<
8A-	8FF	.	.	.	.
!	!LO:TX:b:i:t=legato.	!	!	!	!
.	.	.	.	.	.
8B-L]	8GGL	.	.	.	.
8c	8AA-	.	.	.	.
8GJ	8BB-J	.	.	.	[[
!!LO:LB:g=original
=42	=42	=42	=42	=42	=42
*	*	*	*^	*	*
8A-L	8C	.	8e-]/	8ryy	.	.
8An	8FFL	.	[>4f^>	[4.e-	.	.
8B-J	8GGJ	.	.	.	.	.
8cL	8AAnL	.	4.f_>)	.	.	.
8d-	8BB-	.	.	4ryy	.	.
8AJ	8CJ	.	.	.	.	.
*	*	*	*v	*v	*	*
=43	=43	=43	=43	=43	=43
!LO:TX:t=P:mixed beam:problem	!	!	!	!	!
8B-L/	8D-	.	N(>8f]	.	.
8c>\	8AA-\L	.	4b- 4g-X	.	>
8d->J\	8BB-J	.	.	.	.
8g>L 8e->	8CL	.	[>4.a-	.	.
8f>	8D-	.	.	.	.
8c>JN)	8E-J	.	.	.	]
=44	=44	=44	=44	=44	=44
8d->L	8F\L	.	N(>8a-]	.	.
8dn>	8BB-	.	4cc 4a-	.	.
8e->J	8CJ	.	.	.	.
8f>L	8DnL	.	4.b- 4.a-	.	.
8g>	8E-	.	.	.	.
8d>JN)	8FJ	.	.	.	.
*v	*v	*	*	*	*
=45	=45	=45	=45	=45
*^	*	*	*	*
4ryy	2.E-	.	(>4ee- 4g 4e-\	.	.
8dn\	.	.	8ff 8b- 8f	.	.
8e-L 8d-X\	.	.	8ggL 8ee- 8g	.	.
8e- 8c	.	.	8aa- 8ee- 8a-	.	.
!LO:S:s=1:note:problem:note-level slur	!	!	!	!	!
8e-J (>8G	.	.	8bb-J 8ee- 8b-	.	.
=46	=46	=46	=46	=46	=46
!LO:S:s=1:note:problem:note-level slur	!	!	!	!	!
4e- 4A- 4E-)\	4ryy	.	4ccc 4ee- 4cc)	.	.
*clefG2	*	*	*	*	*
!	!LO:N:vis=4	!	!	!	!
*ped	*	*	*	*	*
8ddn 8bn	4.e-	.	8fff 8aa- 8ff	.	.
4ee- 4cc	.	.	4eee- 4aa-	.	.
*	*	*	*8va	*	*
8dddn 8bbn 8ee-	8ryy	.	8ffff 8aaa- 8fff	.	p
*v	*v	*	*	*	*
=47	=47	=47	=47	=47
4eee- 4ccc 4ee-	.	4eeee- 4aaa-	.	.
*	*	*X8va	*	*
8r	.	8r	.	.
*clefF4	*	*	*	*
(>[>4.EE- [<4.EEE-	.	4r	.	pp
.	.	8r	.	.
!!LO:LB:g=original
=48	=48	=48	=48	=48
*^	*	*	*	*
8ryy	8EE-] 8EEE-\]L	.	8r	.	.
8AA-L	8AAA-	.	2ryy	.	.
*Xped	*	*	*	*	*
8BB-J	8BBB-J	.	.	.	.
4C	4CC	.	.	.	.
8BB-	8BBB-	.	8ryy	.	.
=49	=49	=49	=49	=49	=49
4C	4CC	.	4ryy	.	.
8AA-	8AAA-	.	8ryy	.	.
*ped	*	*	*	*	*
4.AA- 4.AAA-)\	4.ryy	.	4r	.	.
.	.	.	8r	.	.
*clefG2	*	*	*	*	*
*v	*v	*	*	*	*
=50	=50	=50	=50	=50
[<2.cc [<2.a- [<2.e- [<2.c	.	(>[>2.aaa- [>2.aa-	.	>
=51	=51	=51	=51	=51
2.cc_< 2.a-_< 2.e-_< 2.c_	.	2.aaa-_ 2.aa-_>	.	.
=52	=52	=52	=52	=52
8cc] 8a-] 8e-] 8c]	.	8aaa-] 8aa-])	.	.
4r	.	8r	.	]
!	!	!LO:TX:i:t=mezza voce.	!	!
.	.	(>8cccL	.	.
4r	.	8ccJ)	.	.
.	.	8r	.	.
!	!	!LO:TX:t=P:cross-measure beam:problem	!	!
8r	.	(>8ccc	.	.
=53	=53	=53	=53	=53
2.rdd	.	8cc)	.	.
.	.	8r	.	.
.	.	(>8cccL	.	.
.	.	8ccJ)	.	.
.	.	8r	.	.
.	.	(>8ccc	.	.
*clefF4	*	*	*	*
!!LO:PB:g=original
=54	=54	=54	=54	=54
*ped	*	*	*	*
8CC	.	8cc)	.	.
8r	.	8r	.	.
!	!	!LO:TX:a:t=P:problem:nie wyświetla się belkowanie	!	!
(>8f 8c 8G	.	(>8aan 8b-L	.	>
*Xped	*	*	*	*
8CL)	.	8ccJ)	.	]
8r	.	8r	.	.
!	!	!LO:TX:t=P:cross-measure beam:problem	!	!
(>8enJ 8c 8G	.	(>8gg 8b-L	.	>
=55	=55	=55	=55	=55
*ped	*	*	*	*
8FL)	.	8ccJ)	.	]
8rD	.	8r	.	.
(>8fJ 8c	.	(>8ff [>8an	.	>
*Xped	*	*	*	*
.	.	8qgg/	.	.
!	!	!LO:TX:t=P:problem:nie wyświetla się belkowanie	!	!
8DnL)	.	8ff 8aL]	.	.
8r	.	8een 8g	.	.
(>8cJ 8An	.	8ddn^>J\ 8fJ\	.	.
=56	=56	=56	=56	=56
*ped	*	*	*	*
8GGL)\	.	8g)/	.	]
8r	.	8r	.	.
!	!	!LO:TX:t=P:problem:nie wyświetla się belkowanie	!	!
(>8cJ 8G 8Dn	.	(>8een 8fL\	.	>
8GGL)	.	8g\J)	.	]
*Xped	*	*	*	*
8r	.	8r	.	.
!	!	!LO:TX:t=P:cross-measure:problem	!	!
8BnJ (>8G	.	(</8ddLn 8fL/	.	>
=57	=57	=57	=57	=57
*^	*	*	*	*
*ped	*	*	*	*	*
!	!LO:TX:t=P:mixed beam:problem	!	!	!	!
4.ryy	8CCL/)	.	8gJ)/	.	]
.	8r	.	8r	.	.
.	[>\8cJ N[>8G\	.	(>/8cc [<8en/	.	>
.	.	.	8qdd	.	.
!	!	!	!LO:TX:t=P:problem:nie wyświetla się belkowanie	!	!
8GLN]	4.c] 4.C	.	8cc/L 8e]/	.	.
*Xped	*	*	*	*	*
8A-	.	.	8bn 8f	.	.
(>[>8GJ	.	.	[>8ccJ [<8e	.	.
*v	*v	*	*	*	*
=58	=58	=58	=58	=58
*ped	*	*	*	*
8c) 8G] 8CL	.	8cc/] 8enX)]/	.	]
8r	.	8r	.	.
(>8fJ 8c 8G	.	(>8aanL 8b-	.	>
8CL)	.	8ccJ)	.	]
*Xped	*	*	*	*
8r	.	8r	.	>
(>8enJ 8c 8G	.	(>8gg 8b-	.	.
!!LO:LB:g=original
=59	=59	=59	=59	=59
*ped	*	*	*	*
8FL)	.	8cc)	.	]
8r	.	8r	.	.
(>8fJ 8c	.	(>8ff [<8an	.	>
.	.	8qgg/	.	.
8DnL)	.	8ffL 8a]	.	.
*Xped	*	*	*	*
8r	.	8een 8g	.	.
!	!	!	!	!LO:HP:a
(>8cJ 8A	.	8ddnJ 8f	.	]>
=60	=60	=60	=60	=60
8GGL)\	.	8g)/	.	]
8r	.	8r	.	.
!	!	!LO:TX:t=P:problem:nie wyświetla się belkowanie	!	!
(>8cJ 8G 8Dn	.	(>8eenL 8f\	.	>
8GGL)	.	8g\J)	.	]
8r	.	8r	.	.
!	!	!LO:TX:t=P:cross-measure beam:problem	!	!
(8BnJ 8G	.	(<8ddnL 8f	.	.
=61	=61	=61	=61	=61
*^	*	*	*	*
*ped	*	*	*	*	*
!	!LO:TX:t=P:mixed beam:problem	!	!	!	!
4.ryy	8CCL'<)/	.	8gJ)/	.	.
.	8r	.	8r	.	.
.	[>8c\J N[>8G\	.	(>/8cc [<8en/	.	>
.	.	.	8qdd	.	.
!	!	!	!LO:TX:a:t=P:problem:nie wyświetla się belkowanie	!	!
8GLN]	(>4.c] 4.C	.	8cc/ 8e]L/	.	.
8A-	.	.	8bn 8f	.	.
*Xped	*	*	*	*	*
[<8GJ	.	.	[>8cc [<8eJ	.	.
=62	=62	=62	=62	=62	=62
*ped	*	*	*	*	*
8c) 8G]	8CL	.	8cc/] 8enX])/	.	]
8ryy	8r	.	8r	.	.
8ryy	[>8c N[>8GJ	.	/8cc [8eny/	.	>
.	.	.	8qdd	.	.
8GLN]	(>4.c] 4.C	.	8cc/L 8e]/	.	.
*Xped	*	*	*	*	*
8A-	.	.	8bn 8f	.	.
8GJ	.	.	[>8ccJ [<8e	.	.
*v	*v	*	*	*	*
=63	=63	=63	=63	=63
*	*	*^	*	*
*ped	*	*	*	*	*
4C/)	.	8cc/] 8enX/]	4ryy	.	]
.	.	8r	.	.	.
!	!	!	!LO:TX:t=cresc. _:problem:dynamics with extention lines	!	!
!	!	!	!	!	!LO:HP:i:t=cresc.:ext=ud
(>8c 8G	.	4cc^>	(>8eL	.	<
4C)/	.	.	8fJ)	.	.
*Xped	*	*	*	*	*
.	.	8r	8ryy	.	.
(>8c 8A-	.	[>8cc^>	(<8d	.	.
!!LO:LB:g=original
=64	=64	=64	=64	=64	=64
*ped	*	*	*	*	*
4C/)	.	4cc]	8a-)	.	.
.	.	.	8r	.	.
(>8d 8c 8A-	.	4.cc^>	(>8fL	.	.
4C/)	.	.	8gJ)	.	.
*Xped	*	*	*	*	*
.	.	.	8rg	.	.
(>8c 8B-	.	[>8cc^>	[<8en	.	[
*	*	*v	*v	*	*
=65	=65	=65	=65	=65
*ped	*	*	*	*
8FFL\)	.	4cc]/ 4a-/ (<4enX]/	.	.
8r	.	.	.	.
(>8cJ 8A- 8C	.	8cc/ 8f'/)	.	.
8FFL)	.	4r	.	.
8r	.	.	.	.
(>8fJ 8c 8F	.	8ff [<8a-	.	.
=66	=66	=66	=66	=66
*	*	*^	*	*
.	.	8qgg/	.	.	.
8FFL)	.	(>8ffL	4a-]	.	.
*Xped	*	*	*	*	*
8r	.	8ee-	.	.	.
8fJ 8d- 8F	.	8dd-J 8b-	4ryy	.	.
*ped	*	*	*	*	*
8FFL\	.	8ccL 8a-	.	.	.
8r	.	8a-	N[4f	.	.
(>8cJ 8F	.	8b-J 8g	.	.	.
*	*	*v	*v	*	*
=67	=67	=67	=67	=67
*Xped	*	*	*	*
!LO:S:s=1:note:problem:note-level slur	!	!	!	!
8F/) 8FF/	.	8cc/ 8a-/ 8fN])/	.	.
8r	.	8r	.	.
!LO:S:s=1:note:problem:note-level slur	!	!	!	!
(>/8F-X 8FF-X/	.	8cc/ 8a-/ 8f-X/	.	.
*ped	*	*	*	*
8EE-'L)\	.	4r	.	.
8r	.	.	.	.
(>8cJ 8E-	.	[>(>/8cc^ 8a-/ 8e-/	.	.
=68	=68	=68	=68	=68
8EE-L)\	.	8.cc/L]	.	.
8r	.	.	.	.
*Xped	*	*	*	*
.	.	16cck	.	.
(>8cJ 8E-	.	8dd-J) 8a- 8e-	.	.
*ped	*	*	*	*
8EE-L)	.	8ee-L	.	.
16r	.	16r	.	<
16ck 16E-	.	(>16a-k 16e-	.	.
*Xped	*	*	*	*
.	.	.	.	.
8B-J [>8E-	.	8b-J 8g 8d-	.	[[
!!LO:LB:g=original
=69	=69	=69	=69	=69
8A- 8E-] 8AA-	.	8ccL) 8a- 8c	.	.
8r	.	8r	.	.
(8G 8GG\	.	8ccJ 8b- 8en^<	.	.
*ped	*	*	*	*
8FF'L)\	.	4r	.	.
8r	.	.	.	.
8cJ 8A- 8C	.	[8cc^>/ 8a-/ 8f/	.	.
=70	=70	=70	=70	=70
8FFL	.	(>4cc]	.	.
8r	.	.	.	.
8fJ 8c 8F	.	8ff 8a-	.	.
.	.	8qgg/	.	.
8FFL	.	8ffL	.	.
*Xped	*	*	*	*
8r	.	8ee-	.	.
8fJ 8d- 8F	.	8dd-J 8b-	.	.
=71	=71	=71	=71	=71
8fL 8c 8F	.	8cc/L 8a-/	.	.
8c 8E-	.	8cc 8g	.	.
8FJ	.	8ddnJ 8f	.	.
8G'L	.	8g) 8e-	.	.
8A-'	.	8r	.	.
(>8GJ	.	[>8g^> [<8e- [<8c	.	.
=72	=72	=72	=72	=72
8E-/L)	.	4g] 4e-] 4c]	.	.
8D'<	.	.	.	.
(<8CJ	.	[>8g^> 8e- [<8c	.	.
!LO:TX:a:i:t=ten.	!	!	!	!
(<4.GG)	.	4g] 4dn 4c]	.	.
.	.	[>8g^> 8dn (<8Bn	.	.
=73	=73	=73	=73	=73
*ped	*	*	*	*
!LO:TX:t=P:mixed beam:problem	!	!	!	!
8CC'<L)/	.	8g] 8en 8c)	.	.
8r	.	8r	.	.
(>\8gJ 8c\ 8B-\	.	(>8gg 8cc 8b-	.	.
8CL)	.	4r	.	.
8r	.	.	.	.
(>8fJ 8c 8A-	.	8ff 8cc 8a-	.	.
!!LO:LB:g=original
=74	=74	=74	=74	=74
8E-L)	.	4r	.	.
*Xped	*	*	*	*
8r	.	.	.	.
*ped	*	*	*	*
(>8e-J 8B- 8G	.	8ee- [>8b- [>8g	.	.
.	.	8qff/	.	.
8CL)	.	8ee-L 8b-] 8g]\	.	.
*Xped	*	*	*	*
8r	.	8a-	.	.
(>8d-J 8A-	.	8dd-J 8f	.	.
=75	=75	=75	=75	=75
*ped	*	*	*	*
8CL)	.	8cc/ 8en)/	.	.
8r	.	8r	.	.
(>8gJ 8c 8B-	.	(>4.gg^> 4.cc 4.b-	.	.
8CL)	.	.	.	.
*Xped	*	*	*	*
8r	.	.	.	.
(>8fJ 8c 8A-	.	[>8ff^> [>8cc [>8a-	.	.
=76	=76	=76	=76	=76
*	*	*^	*	*
*ped	*	*	*	*	*
8CL)	.	4ff] 4cc] 4a-]\	4.ryy	.	.
p8r	.	.	.	.	.
(>8e-J 8B- 8G	.	8ee-^> [>8b- N[>8g\	.	.	.
.	.	8qff/	.	.	.
8CL)	.	8ee-L 8b-]/	4g\N]	.	.
*Xped	*	*	*	*	*
8r	.	8a-	.	.	.
(8d-J 8A- 8F	.	8dd-J 8f	8ryy	.	.
*	*	*v	*v	*	*
=77	=77	=77	=77	=77
*ped	*	*	*	*
8CL)	.	8cc/) 8en/	.	.
8r	.	8r	.	.
8cJ 8En	.	(>4.ccc^< 4.cc	.	.
!	!	!LO:TX:t=cresc. _:problem:dynamics with extention lines	!	!
!	!	!	!	!LO:HP:i:t=cresc.:ext=ud
.	.	.	.	<
8CL	.	.	.	.
*Xped	*	*	*	*
8r	.	.	.	.
*ped	*	*	*	*
8dnJ 8c 8F	.	[>8ccc^< [>8ddn [<8cc	.	.
=78	=78	=78	=78	=78
8CL	.	4ccc] 4ddnX] 4cc]	.	.
*Xped	*	*	*	*
.	.	.	.	.
8r	.	.	.	.
*ped	*	*	*	*
8fJ 8c 8A-	.	4.ccc^< 4.ff 4.cc	.	.
8CL	.	.	.	.
*Xped	*	*	*	*
.	.	.	.	.
8r	.	.	.	.
*ped	*	*	*	*
8enJ 8c 8G	.	[>8ccc^< [>8een [>8cc	.	.
!!LO:PB:g=original
=79	=79	=79	=79	=79
8CL	.	4ccc] 4eenX] 4cc]	.	.
*Xped	*	*	*	*
8r	.	.	.	.
*ped	*	*	*	*
8dnJ 8c 8F	.	4.ccc^< 4.dd- 4.cc	.	.
8CL	.	.	.	.
*Xped	*	*	*	*
8r	.	.	.	.
*ped	*	*	*	*
8enJ 8c 8G	.	[>8ccc^< [>8een [>8cc	.	.
=80	=80	=80	=80	=80
8CL	.	4ccc] 4eenX] 4cc]	.	.
*Xped	*	*	*	*
8r	.	.	.	.
*ped	*	*	*	*
8a-J 8c 8B-	.	4.ccc 4.aa- 4.cc	.	.
8CL 8CC	.	.	.	.
8r	.	.	.	.
*Xped	*	*	*	*
8gJ 8c 8B- 8G	.	8ccc 8gg 8cc	.	[[
=81	=81	=81	=81	=81
.	.	8qaa-/	.	.
*ped	*	*	*	*
!LO:TX:t=P:mixed beam:problem	!	!	!	!
8FF/L 8FFF/	.	4ccc 4gg 4cc	.	ff
8r	.	.	.	.
8f\J 8c\ 8A-\ 8F\	.	4ccc 4ff 4cc)	.	.
8FL 8FF	.	.	.	.
8r	.	8r	.	.
*Xped	*	*	*	*
8fJ 8c 8A- 8F	.	8fff 8ff	.	.
=82	=82	=82	=82	=82
.	.	8qggg 8qgg/	.	.
*ped	*	*	*	*
8FL 8FF	.	(>8fffL 8ff	.	.
8r	.	8eee- 8ee-	.	.
*Xped	*	*	*	*
8fJ 8d- 8B- 8F	.	8ddd-J 8bb- 8dd-	.	.
*ped	*	*	*	*
8FL 8FF	.	8cccL 8aa- 8cc	.	.
8r	.	8aa- 8ff 8a-	.	.
*Xped	*	*	*	*
8cJ 8C	.	8bb-J 8gg 8b-	.	.
=83	=83	=83	=83	=83
8F/L 8FF/	.	8ccc 8aa- 8cc)	.	.
8r	.	8r	.	.
8F-XJ 8FF-X	.	8ccc^< 8aa- 8cc	.	.
*ped	*	*	*	*
8E-L 8EE-	.	4r	.	.
8r	.	.	.	.
8e-J 8A- 8E-	.	[>8ccc [>8aa- [>8cc	.	.
!!LO:LB:g=original
=84	=84	=84	=84	=84
8E-L 8EE-	.	8cccL] 8aa-] 8cc]	.	.
16r	.	16r	.	.
16fk 16c 16A-	.	(>16ccck 16aa- 16cc	.	.
*Xped	*	*	*	*
8e-J 8c 8A- 8E-	.	8ddd-J 8aa- 8dd-	.	.
*ped	*	*	*	*
8E-L 8EE-	.	8eee-L 8aa- 8ee-)	.	.
16r	.	16r	.	.
16e-k 16c 16E-	.	(>16aa-k 16ee- 16a-	.	.
*Xped	*	*	*	*
8e-J 8d- 8G 8E-	.	8bb-J 8ee- 8b-	.	.
=85	=85	=85	=85	=85
8A-L 8AA-	.	8ccc 8ee- 8cc)	.	.
8r	.	8r	.	.
8GJ 8GG	.	8ccc^< 8bb- 8een 8cc	.	.
*ped	*	*	*	*
8FL 8FF	.	4r	.	.
8r	.	.	.	.
8cJ 8A- 8F 8C	.	[>8ccc^< [>8aa- [>8ff [>8cc	.	.
=86	=86	=86	=86	=86
8FF 8FFF	.	8ccc] 8aa-] 8ff] 8cc]	.	.
8r	.	8r	.	.
8f 8A- 8F	.	(>8fff 8aa- 8ff^<	.	.
8qg 8qG 8qA-/	.	8qggg 8qgg/	.	.
*Xped	*	*	*	*
8fL 8A- 8F	.	8fffL 8aa- 8ff^<	.	.
8f-X 8A- 8F-X	.	8fff-X 8aa- 8ff-X^<	.	.
8e-J 8A- 8E-	.	8eee-J 8aa- 8ee-^<	.	.
=87	=87	=87	=87	=87
8dnL 8A- 8Dn	.	8dddnL 8aa- 8ddn)^<	.	.
16r	.	16r	.	.
16d-Xk 16A- 16D-X	.	(>16ddd-Xk 16aa- 16dd-X	.	.
8cJ 8A- 8C	.	8cccJ 8aa- 8cc^<	.	.
8cL 8A- 8C	.	8cccL 8cc)^<	.	.
8G 8C 8GG	.	(>8gg 8cc 8g	.	.
8B-J 8C 8BB-	.	8bb-J 8cc 8b-	.	.
=88	=88	=88	=88	=88
*^	*	*	*	*
*	*	*	*	*	*^
4ryy	8A- 8C 8AA-	.	8aa- 8cc 8a-)	.	.	.
.	8r	.	8r	.	.	.
*ped	*	*	*	*	*	*
2c 2G-X	2AA- 2AAA-	.	(>[<8a-	.	>	.
.	.	.	8a-]L	.	.	>
.	.	.	8g	.	.	.
*Xped	*	*	*	*	*	*
.	.	.	8g-XJ	.	]]	.
*	*	*	*	*	*v	*v
*v	*v	*	*	*	*
!!LO:LB:g=original
=89	=89	=89	=89	=89
8D- 8DD-\	.	8fL 8d- 8F<	.	.
4r	.	8c	.	.
.	.	8B-J	.	.
4r	.	8A-)	.	.
.	.	(>8gn 8GnX<L	.	.
8r	.	8b-J 8B-<	.	.
=90	=90	=90	=90	=90
*^	*	*	*	*
4rBB	4ryy	.	8a-) 8A-<	.	.
.	.	.	8r	.	.
*ped	*	*	*	*	*
2c 2G-X	2AA- (<2AAA-	.	(>[<8a-	.	>
.	.	.	8a-]L	.	.
.	.	.	8gn	.	.
.	.	.	8g-XJ	.	]
*Xped	*	*	*	*	*
=91	=91	=91	=91	=91	=91
4D- 4DD-\)	4ryy	.	4f 4d- 4F<)	.	.
*ped	*	*	*	*	*
N[>2d- N[>2F	[<2GGn [<2GGGn	.	[<(>8f	.	>
.	.	.	8fL]	.	.
.	.	.	8en	.	.
.	.	.	8gJ	.	]
*v	*v	*	*	*	*
=92	=92	=92	=92	=92
*^	*	*	*	*
4ryy	8GG] 8GGG]\	.	8f 8d-N] 8F<N])	.	.
.	8r	.	8r	.	.
2F	(>[>8GG [<8GGG\	.	[<8f [8d-	.	>
*Xped	*	*	*	*	*
.	.	.	.	.	.
.	8GGL] 8GGG\]	.	8fL] 8d-]	.	.
.	8AA- 8AAA-	.	8e- 8c	.	.
.	8BB-J 8BBB-	.	8d-J 8B-	.	]
=93	=93	=93	=93	=93	=93
*	*	*	*	*	*^
4ryy	8CC)\	.	8c< 8En<	.	.	.
.	8r	.	8r	.	.	.
*ped	*	*	*	*	*	*
!	!	!	!LO:TX:t=dim _:problem:dynamics with extention lines	!	!	!
!	!	!	!	!	!	!LO:HP:i:t=dim:ext=ud
2Bn 2F	(<2GG 2GGG	.	(>[<8f	.	>	>
.	.	.	8fL]	.	.	.
.	.	.	8e-	.	.	.
.	.	.	8d-J	.	]	.
!!LO:LB:g=original
=94	=94	=94	=94	=94	=94	=94
*^	*	*	*	*	*	*
*	*Xped	*	*	*	*	*	*
.	.	.	.	.	.	.	.
4ryy	4ryy	8GG 8CC)\	.	8c 8En<)	.	.	.
.	.	8r	.	8r	.	.	.
*	*ped	*	*	*	*	*	*
2F	2GG/	(>[>8GGG	.	(>[>8f [<8d-	.	>	.
.	.	8GGGL]	.	8f]L 8d-]	.	.	.
.	.	8AAA-	.	8e- 8c	.	.	.
.	.	8BBB-J	.	8d-J) 8B-	.	]	.
*v	*v	*	*	*	*	*	*
*	*	*	*	*	*v	*v
*v	*v	*	*	*	*
=95	=95	=95	=95	=95
[>4.CC\)	.	(>4c< 4En<	.	.
*Xped	*	*	*	*
.	.	.	.	.
.	.	8d< 8c< 8F<	.	]]
!	!	!LO:TX:t=cresc _:problem:dynamics with extention lines	!	!
!	!	!	!	!LO:HP:i:t=cresc:ext=ud
4C. 4CC.]\	.	4f 4c< 4A-<	.	<
.	.	8en 8c< 8G<	.	.
=96	=96	=96	=96	=96
*^	*	*	*	*
4F\	2.C	.	4dn< 4c<	.	.
8G\	.	.	8en 8c	.	.
4c\	.	.	4a- 4e	.	.
8B-\	.	.	8g 8e)	.	.
*v	*v	*	*	*	*
=97	=97	=97	=97	=97
4c 4B- 4G 4C	.	(>4cc/ 4en/	.	.
8dn 8B- 8G 8C	.	8ddn/ 8cc/ 8f/	.	.
4f 4B- 4G 4C	.	4ff 4cc 4a-	.	.
8en 8B- 8G 8C	.	8een 8cc 8g	.	.
=98	=98	=98	=98	=98
4dn 4B- 4F 4C	.	4ddn/ 4cc/ 4f/	.	.
8en 8B- 8G 8C	.	8een 8cc 8g	.	.
.	.	8qee 8qcc 8qg/	.	.
4a- 4c 4B- 4C	.	4aa- 4ee 4cc	.	.
8g 8c 8B-	.	8gg 8cc 8b-	.	[[
=99	=99	=99	=99	=99
8f 8c 8F	.	8ff 8cc 8a-)	.	.
!	!	!LO:N:vis=4	!	!
8rD	.	8r	.	.
!	!	!LO:S:s=1:note:problem:note-level slur	!	!
4rD	.	(>4.a-^ 4.A-<	.	.
8rD	.	.	.	.
8F-X/ 8FF-X/	.	8dn 8Bn\	.	.
!!LO:LB:g=original
=100	=100	=100	=100	=100
*^	*	*^	*	*
8qEE-/	.	.	.	.	.	.
!LO:N:vis=2.	!	!	!	!	!	!
8E-L	2.E-	.	8e- 8a-L	8c	.	<
8B-	.	.	8g	2d-X	.	.
8A-J	.	.	8fJ	.	.	.
8GL	.	.	8e-L	.	.	.
8F	.	.	8cc	.	.	.
8GJ	.	.	8b-J 8e- 8d-	8ryy	.	.
*v	*v	*	*	*	*	*
=101	=101	=101	=101	=101	=101
(>8qAA-/	.	.	.	.	.
2.A-)	.	8a- 8e- 8c)	8ryy	.	[
.	.	4r	4ryy	.	.
!	!	!LO:N:vis=4.	!	!	!
.	.	(>4cc^	4f 4d	.	.
.	.	8f#X	N[>8e-	.	.
=102	=102	=102	=102	=102	=102
*^	*	*	*	*	*
8e->LN]	(>2.G	.	8cc 8gL	8ryy	.	<
8dn>	.	.	8bn	2f	.	.
8c>J	.	.	8anJ	.	.	.
8Bn>L	.	.	8gL	.	.	.
8An>	.	.	8een	.	.	.
8B>J	.	.	8ddnJ [>8g 8f	8ryy	.	.
*v	*v	*	*	*	*	*
*	*	*v	*v	*	*
=103	=103	=103	=103	=103
*ped	*	*	*	*
8c 8G 8C)	.	8cc 8g] 8en)	.	[
4r	.	8r	.	.
!	!	!LO:TX:t=P:diminuendolike accent:problem	!	!
!	!	!LO:TX:t=P:problem:nie wyświetla się belkowanie	!	!
.	.	(>8cccL^<	.	.
4r	.	8ccJ)	.	.
.	.	8r	.	.
!	!	!LO:TX:t=P:diminuendolike accent:problem	!	!
!	!	!LO:TX:t=P:problem:nie wyświetla się belkowanie	!	!
8r	.	(>8cccL^<	.	.
=104	=104	=104	=104	=104
2.rF	.	8ccJ)	.	.
.	.	8r	.	.
!	!	!LO:TX:t=P:diminuendolike accent:problem	!	!
!	!	!LO:TX:t=P:problem:nie wyświetla się belkowanie	!	!
.	.	(>8cccL^<	.	.
.	.	8ccJ)	.	.
.	.	8r	.	.
!	!	!LO:TX:t=P:diminuendolike accent:problem	!	!
.	.	(>8ccc^<	.	.
!!LO:PB:g=original
=105	=105	=105	=105	=105
*ped	*	*	*	*
8CC'	.	8cc)	.	.
8r	.	8r	.	.
!	!	!LO:TX:t=P:problem:nie wyświetla się belkowanie	!	!
(>8f 8c 8G	.	(>8aanL 8b-	.	>
8CL)	.	8ccJ)	.	]
*Xped	*	*	*	*
8r	.	8r	.	.
!	!	!LO:TX:t=P:cross-measure beam:problem	!	!
(>8enJ 8c 8G	.	(>8gg 8b-L	.	>
=106	=106	=106	=106	=106
8FL)	.	8ccJ)	.	]
8r	.	8r	.	.
*ped	*	*	*	*
(>8fJ 8c	.	(>8ff [>8an	.	>
.	.	8qgg/	.	.
!	!	!LO:TX:t=P:problem:nie wyświetla się belkowanie	!	!
8DnL)	.	8ffL 8a]	.	.
8r	.	8een 8g	.	.
*Xped	*	*	*	*
.	.	.	.	.
(8cJ 8An	.	8ddn\J 8f\	.	]
=107	=107	=107	=107	=107
*ped	*	*	*	*
8GGL\)	.	8g)/	.	.
8r	.	8r	.	.
!	!	!LO:TX:t=P:problem:nie wyświetla się belkowanie	!	!
(>8cJ 8G 8Dn	.	(</8eenL 8f/	.	>
8GGL)\	.	8gJ)	.	]
8r	.	8r	.	.
*Xped	*	*	*	*
!	!	!LO:TX:t=P:cross-measure beam:problem	!	!
(8BnJ 8G 8D	.	(</8ddnL 8f/	.	>
=108	=108	=108	=108	=108
*^	*	*	*	*
*ped	*	*	*	*	*
!LO:TX:t=P:mixed beam:problem	!	!	!	!	!
4.ryy	8CC'<L/)	.	8gJ)/	.	]
.	8r	.	8r	.	.
.	[>\8cJ N[>8G\	.	(>/8cc [<8en/	.	>
.	.	.	8qdd/	.	.
!	!	!	!LO:TX:t=P:problem:nie wyświetla się belkowanie	!	!
8GLN]	[>4.c] 4.C	.	8cc/L 8e]/	.	.
8A-	.	.	8bn 8f	.	.
*Xped	*	*	*	*	*
[>8GJ	.	.	[>8ccJ [<8e	.	]
*v	*v	*	*	*	*
=109	=109	=109	=109	=109
*ped	*	*	*	*
8cL] 8G] 8C	.	8cc/] 8e])/	.	.
8r	.	8r	.	.
*Xped	*	*	*	*
(8dnJ 8G	.	(>8aanL 8b-	.	>
*ped	*	*	*	*
8CL)	.	8ccJ)	.	]
8r	.	8r	.	.
*Xped	*	*	*	*
(8enJ 8G	.	(8gg 8b-	.	>
!!LO:LB:g=original
=110	=110	=110	=110	=110
8FL)	.	8cc)	.	]
8r	.	8r	.	.
(8fJ 8c	.	(>8ff [>8an^<	.	.
.	.	8qgg/	.	.
*ped	*	*	*	*
8DnL)	.	8ffL 8a]	.	.
8r	.	8een 8g	.	.
*Xped	*	*	*	*
!	!	!LO:TX:t=P:diminuendolike accent:problem	!	!
(8aJ 8c	.	8ddnJ 8f^<	.	.
=111	=111	=111	=111	=111
*ped	*	*	*	*
8GGL\)	.	8g)/	.	.
8r	.	8r	.	.
*Xped	*	*	*	*
!	!	!LO:TX:a:t=P:problem:nie wyświetla się belkowanie	!	!
(>8AnJ 8Dn	.	(</8eenL 8f/	.	>
*ped	*	*	*	*
8GGL\)	.	8gJ)	.	]
8r	.	8r	.	.
!	!	!LO:TX:t=P:cross-measure beam:problem	!	!
(8BnJ 8D	.	(</8ddnL 8f/	.	.
*Xped	*	*	*	*
.	.	.	.	.
=112	=112	=112	=112	=112
*^	*	*	*	*
*ped	*	*	*	*	*
!	!LO:TX:t=P:mixed beam:problem	!	!	!	!
4.ryy	8CCL/)	.	8gJ)/	.	.
.	8r	.	8r	.	.
.	[>\8cJ N[>8G\	.	(>/8cc [<8en/	.	.
*Xped	*	*	*	*	*
.	.	.	8qdd-	.	.
!	!	!	!LO:TX:t=P:problem:nie wyświetla się belkowanie	!	!
8GLN])	4.c_> 4.C	.	8cc/L 8e/]	.	.
8A-	.	.	8bn 8f	.	.
[>8GJ	.	.	[>8ccJ [<8e	.	.
=113	=113	=113	=113	=113	=113
*ped	*	*	*	*	*
4.ryy	8c] 8G] 8CL	.	8cc/] 8enX])/	.	.
.	8r	.	8r	.	.
.	[>8cJ N[>8G	.	(>/8cc 8e/	.	.
.	.	.	8qddn/	.	.
8GLN]	4.c_> 4.C	.	8cc/L 8e/	.	.
8A-	.	.	8bn 8f	.	.
*Xped	*	*	*	*	*
.	.	.	.	.	.
[>8GJ	.	.	[>8ccJ [<8e	.	.
*v	*v	*	*	*	*
=114	=114	=114	=114	=114
*ped	*	*	*	*
4c] 4G] 4C	.	8cc/] 8enX)/]	.	.
.	.	8r	.	.
8c 8G	.	(>4cc/ 4e/	.	.
!	!	!LO:TX:t=dim _:problem:dynamics with extention lines	!	!
!	!	!	!	!LO:HP:i:t=dim:ext=ud
4C/	.	.	.	>
.	.	8r	.	.
8c 8G	.	[</8cc [<8e/	.	.
!!LO:LB:g=original
=115	=115	=115	=115	=115
4C/	.	8cc/] 8enX]/	.	.
.	.	8r	.	.
8c 8G	.	4cc/ 4e/	.	.
4C/	.	.	.	.
.	.	8r	.	.
*Xped	*	*	*	*
8c 8G	.	8cc/ 8e)/	.	]
=116	=116	=116	=116	=116
.	.	(>8qqe-X/L	.	.
.	.	8qqcc/	.	.
.	.	8qqcc/J	.	.
*ped	*	*	*	*
4AA-	.	(>[>4.ccc)	.	.
(>8e- 8A- 8E-	.	.	.	<
*Xped	*	*	*	*
.	.	.	.	.
*ped	*	*	*	*
4.f-X 4.A- 4.F-X)	.	16cccLL]	.	.
.	.	16bb-	.	[
.	.	16aa-	.	.
.	.	16gg	.	.
.	.	16aa-	.	.
*Xped	*	*	*	*
.	.	16ff-XJJ	.	.
=117	=117	=117	=117	=117
*^	*	*	*	*
*ped	*	*	*	*	*
8AAA-	4.ryy	.	16ddnLL	.	.
.	.	.	16ffn	.	.
8rD	.	.	16ee-	.	.
.	.	.	16cc	.	.
(>/[<8E-	.	.	16a-	.	.
.	.	.	16fJJ	.	.
4c	4.E-]	.	4e-	.	.
*Xped	*	*	*	*	*
8B-)	.	.	8g 8d-X)	.	.
*v	*v	*	*	*	*
=118	=118	=118	=118	=118
.	.	(<8qqc/L	.	.
.	.	8qqe-/	.	.
.	.	8qqa-/	.	.
.	.	8qqcc/	.	.
.	.	8qqee-/	.	.
.	.	8qqaa-/	.	.
.	.	8qqccc/J	.	.
*	*	*8va	*	*
*ped	*	*	*	*
8AA-'	.	(>[>4.cccc)	.	.
8r	.	.	.	.
(>8a-: 8c: 8E-:	.	.	.	<
*Xped	*	*	*	*
.	.	.	.	.
*ped	*	*	*	*
4.a-: 4.c: 4.F-X:)	.	16ccccLL]	.	[
.	.	16bbb-	.	.
.	.	16aaa-	.	.
.	.	16ggg	.	.
.	.	16aaa-	.	.
*Xped	*	*	*	*
.	.	16fff-XJJ	.	.
*	*	*X8va	*	*
!!LO:LB:g=original
=119	=119	=119	=119	=119
*	*	*	*^	*
!	!	!LO:TX:a:t=loco.	!	!	!
*ped	*	*	*	*	*
8AA-L\	.	16dddnLL	.	.	.
.	.	16fffn	.	.	.
8r	.	16eee-	.	.	.
.	.	16ccc	.	.	.
[>(>8FnXJ	.	16aa-	.	.	.
.	.	16ffJJ	.	.	.
4c 4F]	.	16ee-LL/	.	.	.
.	.	16cc	.	.	.
.	.	16a-	.	.	.
*Xped	*	*	*	*	*
.	.	16f	.	.	.
8A- 8BB-)	.	16c	.	.	.
.	.	16dnJJ)	.	1	.
=120	=120	=120	=120	=120	=120
.	.	(>16qqe-/LL	.	.	.
.	.	16qqg/JJ	.	1	.
*ped	*	*	*	*	*
8EE-'	.	(>[>4.gg)	.	.	.
8r	.	.	.	.	.
(>8e-: 8G: 8BB-:	.	.	.	.	<
*Xped	*	*	*	*	*
.	.	.	.	.	.
*ped	*	*	*	*	*
4.e-: 4.G: 4.C-X:)	.	16ggLL]	.	.	[[
.	.	16ff	.	.	.
.	.	16ee-	.	.	.
.	.	16ddn	.	.	.
.	.	16ee-	.	.	.
*Xped	*	*	*	*	*
.	.	16cc-XJJ	.	.	.
*	*	*	*v	*v	*
=121	=121	=121	=121	=121
*^	*	*	*	*
*ped	*	*	*	*	*
8EEE-'< 8EE-'<	4.ryy	.	16anLL	.	.
.	.	.	16ccn	.	.
8r	.	.	16b-	.	.
.	.	.	16g	.	.
(>[<8BB-	.	.	16e-	.	.
.	.	.	16cJJ	.	.
4G	4.BB-]	.	4B-	.	.
*Xped	*	*	*	*	*
.	.	.	.	.	.
8F)	.	.	8dn 8A-X)	.	.
*v	*v	*	*	*	*
=122	=122	=122	=122	=122
.	.	(<8qqG</L	.	.
.	.	8qqB-</	.	.
.	.	8qqe-/	.	.
.	.	8qqg/	.	.
.	.	8qqb-/	.	.
.	.	8qqee-/	.	.
.	.	8qqgg/J	.	.
*ped	*	*	*	*
8EE-'	.	(>[>4.ggg)	.	.
8r	.	.	.	.
*Xped	*	*	*	*
(8b-: 8B-: 8E-:	.	.	.	<
*ped	*	*	*	*
4.cc-X: 4.c-X: 4.E-:)	.	16gggLL]	.	[
.	.	16fff	.	.
.	.	16eee-	.	.
.	.	16dddn	.	.
.	.	16eee-	.	.
*Xped	*	*	*	*
.	.	16ccc-XJJ	.	.
!!LO:LB:g=original
=123	=123	=123	=123	=123
*ped	*	*	*	*
8EE-L/	.	16aanLL	.	.
.	.	16ccc	.	.
8r	.	16bb-	.	.
.	.	16gg	.	.
8E-J	.	16ddn	.	.
.	.	16ee-JJ	.	.
*clefG2	*	*	*	*
!LO:S:s=1:note:problem:note-level slur	!	!	!	!
4dd- 4g 4e- 4B-	.	16eenLL	.	.
.	.	16gg	.	.
.	.	16ff	.	.
.	.	16dd-X	.	.
8r	.	16b-	.	.
*Xped	*	*	*	*
.	.	16fJJ)	.	.
*clefF4	*	*	*	*
=124	=124	=124	=124	=124
!	!	!LO:TX:i:t=leggiero.	!	!
*ped	*	*	*	*
8AA-	.	(>16e-LL	.	.
.	.	16a-	.	.
4e- 4c 4E-	.	16cc	.	.
.	.	16ee-	.	.
*Xped	*	*	*	*
.	.	16gg	.	.
.	.	16ffJJ	.	.
*ped	*	*	*	*
8BB-	.	16ee-LL	.	.
.	.	16cc	.	.
4e- 4G 4E-	.	16dd-	.	.
.	.	16an	.	.
.	.	16b-	.	.
*Xped	*	*	*	*
.	.	16fJJ	.	.
=125	=125	=125	=125	=125
*ped	*	*	*	*
8C	.	16e-LL	.	.
.	.	16a-	.	.
4e- 4A- 4E-	.	16cc	.	.
.	.	16ee-	.	.
.	.	16gg	.	.
*Xped	*	*	*	*
.	.	16ffJJ	.	.
*ped	*	*	*	*
8GG	.	16ee-/LL	.	.
.	.	16cc	.	.
4e- 4d- 4B- 4E-	.	16dd-	.	.
.	.	16an	.	.
.	.	16b-	.	.
*Xped	*	*	*	*
.	.	16d-JJ	.	.
=126	=126	=126	=126	=126
*^	*	*	*	*
*ped	*	*	*	*	*
8AA-	4ryy	.	16cLL	.	.
.	.	.	16d-	.	.
4r	.	.	16e-	.	.
.	.	.	16f	.	.
.	8ryy	.	16g-X	.	.
.	.	.	16a-JJ	.	.
(>/4g-X	[<\4.c [<\4.A- [<\4.G-X	.	16b-LL	.	.
.	.	.	16cc	.	.
.	.	.	16dd-	.	.
.	.	.	16ee-	.	.
8dn/	.	.	16ff	.	.
*Xped	*	*	*	*	*
.	.	.	16gg-XJJ	.	.
!!LO:PB:g=original
=127	=127	=127	=127	=127	=127
!	!LO:TX:t=P:w tym takcie dwie górne ligatury idą w górę :problem	!	!	!	!
4.e-	2.c] 2.A-] 2.G-X]	.	16cccLL	.	.
.	.	.	16bb-	.	.
.	.	.	16aa-	.	.
.	.	.	16bb-	.	.
.	.	.	16aa-	.	.
.	.	.	16gg-XJJ	.	.
4.en)	.	.	16aa-LL	.	.
.	.	.	16gg-	.	.
.	.	.	16ff	.	.
.	.	.	16gg-	.	.
.	.	.	16ff	.	.
.	.	.	16eenJJ	.	.
*v	*v	*	*	*	*
=128	=128	=128	=128	=128
*ped	*	*	*	*
8D-	.	16ffLL	.	.
.	.	16gg-X	.	.
4a- 4f 4A-	.	16ggn	.	.
.	.	16aa-	.	.
*Xped	*	*	*	*
.	.	16ccc	.	.
.	.	16bb-JJ	.	.
*ped	*	*	*	*
8E-	.	16aa-LL	.	.
.	.	16ff	.	.
4a- 4c 4A-	.	16gg-X	.	.
.	.	16ddn	.	.
.	.	16ee-	.	.
*Xped	*	*	*	*
.	.	16b-JJ	.	.
=129	=129	=129	=129	=129
*ped	*	*	*	*
8F	.	16a-LL	.	.
.	.	16dd-	.	.
4a- 4d- 4A-	.	16ff	.	.
.	.	16aa-	.	.
*Xped	*	*	*	*
.	.	16ccc	.	.
.	.	16bb-JJ	.	.
*ped	*	*	*	*
8C/	.	16aa-LL	.	.
.	.	16ff	.	.
4a- 4e- 4A-	.	16gg-X	.	.
.	.	16ddn	.	.
.	.	16ee-	.	.
*Xped	*	*	*	*
.	.	16g-XJJ	.	.
=130	=130	=130	=130	=130
*^	*	*	*	*
*ped	*	*	*	*	*
8DD-	4.ryy	.	16fLL\	.	.
.	.	.	16gn	.	.
4r	.	.	16a-	.	.
.	.	.	16b-	.	.
.	.	.	16cc	.	.
.	.	.	16dd-JJ	.	.
*clefG2	*	*	*	*	*
[>4.a- [>4.f	(<4d-	.	16ee-LL	.	.
.	.	.	16een	.	.
.	.	.	16ff	.	.
.	.	.	16gg	.	.
.	8An	.	16aan	.	.
.	.	.	16bb-JJ	.	.
!!LO:LB:g=original
=131	=131	=131	=131	=131	=131
2.a-] 2.f]	4.B-	.	16cccLL	.	.
.	.	.	16ddd-	.	.
.	.	.	16eee-	.	.
.	.	.	16eeen	.	.
.	.	.	16fff	.	.
.	.	.	16gggJJ	.	.
*	*	*	*8va	*	*
.	4.c)	.	16aaanLL	.	.
.	.	.	16bbb-	.	.
.	.	.	16cccc	.	.
.	.	.	16dddd-	.	.
.	.	.	16eeee	.	.
.	.	.	16eeeenJJ	.	.
*clefF4	*	*	*	*	*
*v	*v	*	*	*	*
=132	=132	=132	=132	=132
!	!	!LO:TX:t=dim. _:problem:dynamics with extention lines	!	!
!	!	!	!	!LO:HP:i:t=dim.:ext=ud
*ped	*	*	*	*
8D-/	.	16ffffLL	.	>
.	.	16eeeen	.	.
8r	.	16eeee-X	.	.
.	.	16dddd-	.	.
*clefG2	*	*	*	*
(<8f 8a- 8b-	.	16cccc	.	.
.	.	16bbb-JJ	.	.
8b-L 8a- 8f	.	16aaa-LL	.	.
.	.	16ggg	.	.
16r	.	16fff	.	.
!LO:N:vis=8	!	!	!	!
!LO:TX:t=P:problem:w źródle ósemka zamiast szesnastki	!	!	!	!
16cck 16a- 16f	.	16eeen	.	.
8dd-J 8b- 8a-	.	16eee-X	.	.
.	.	16ddd-JJ	.	.
*	*	*X8va	*	*
=133	=133	=133	=133	=133
!	!	!LO:TX:a:t=loco.	!	!
4dd-/ 4b-/ 4a-/	.	16cccLL	.	.
.	.	16bb-	.	.
.	.	16aa-	.	.
.	.	16gg	.	.
8f 8d- 8B- 8A-	.	16ff	.	.
.	.	16eenJJ	.	.
4f 4d- 4B- 4A-)	.	16ee-XLL	.	.
.	.	16dd-	.	.
.	.	16cc	.	.
.	.	16ee-	.	.
8r	.	16dd-	.	.
*Xped	*	*	*	*
.	.	16fJJ	.	]]
*clefF4	*	*	*	*
!!LO:LB:g=original
=134	=134	=134	=134	=134
*ped	*	*	*	*
!	!	!LO:TX:t=cresc. _:problem:dynamics with extention lines	!	!
!	!	!	!	!LO:HP:i:t=cresc.:ext=ud
8D-L 8DD-	.	4.b-^<T	.	<
8f 8B-	.	.	.	.
*Xped	*	*	*	*
8FJ	.	.	.	.
.	.	16qqa/LL	.	.
.	.	16qqb-/JJ	.	.
*ped	*	*	*	*
8CL	.	4.cc^<t	.	.
8e- 8An	.	.	.	.
*Xped	*	*	*	*
8FJ	.	.	.	.
.	.	16qqb-/LL	.	.
.	.	16qqcc/JJ	.	.
=135	=135	=135	=135	=135
*ped	*	*	*	*
8BB-L	.	4.dd-^<T	.	.
8d- 8B-	.	.	.	.
*Xped	*	*	*	*
8FJ	.	.	.	.
.	.	16qqcc/LL	.	.
.	.	16qqdd-/JJ	.	.
*ped	*	*	*	*
8D-L	.	8eentL	.	.
8f 8B-	.	16dd#XL	.	.
.	.	16ee	.	.
8A-J	.	16gg	.	.
*Xped	*	*	*	*
.	.	16ffJJ	.	[
=136	=136	=136	=136	=136
*	*	*^	*	*
.	.	[<8qee-X/	.	.	.
*ped	*	*	*	*	*
!	!	!LO:TX:i:t=sostenuto.	!	!	!
(>16EE-LL\	.	4.ee-/]) 4.e-/	4.ryy	.	.
16BB-	.	.	.	.	.
16E-	.	.	.	.	.
16G	.	.	.	.	.
16E-	.	.	.	.	.
*Xped	*	*	*	*	*
16BB-JJ)	.	.	.	.	.
*ped	*	*	*	*	*
(>16FFLL\	.	(>8aa-L 8a-	[<4.dd-	.	>
16AA-	.	.	.	.	.
16D-	.	8gg 8g	.	.	.
16A-	.	.	.	.	.
16D-	.	8ffJ 8f	.	.	]
*Xped	*	*	*	*	*
16AA-JJ)	.	.	.	.	.
=137	=137	=137	=137	=137	=137
*ped	*	*	*	*	*
(>16GGLL	.	4ee- 4dd-] 4e-	4ryy	.	.
16D-	.	.	.	.	.
16E-	.	.	.	.	.
16B-	.	.	.	.	.
16E-	.	4.ff 4.dd-	2f	.	>
*Xped	*	*	*	*	*
16D-JJ)	.	.	.	.	.
*ped	*	*	*	*	*
(>16AAnLL	.	.	.	.	.
16E-	.	.	.	.	.
16F	.	.	.	.	.
16c	.	.	.	.	.
16F	.	8ee- 8cc	.	.	.
*Xped	*	*	*	*	*
16E-JJ)	.	.	.	.	]
!!LO:LB:g=original
=138	=138	=138	=138	=138	=138
.	.	8qee-/	.	.	.
*ped	*	*	*	*	*
(>16BB-LL	.	8dd-L	4.a- 4.f	.	.
16F	.	.	.	.	.
16A-	.	8cc	.	.	.
16d-	.	.	.	.	.
16A-	.	8b-J	.	.	.
*Xped	*	*	*	*	*
16FJJ)	.	.	.	.	.
*ped	*	*	*	*	*
(>16EE-LL\	.	4cc	4.g 4.d-	.	.
16BB-	.	.	.	.	.
16E-	.	.	.	.	.
16G	.	.	.	.	.
16E-	.	8dd-	.	.	.
*Xped	*	*	*	*	*
16BB-JJ)	.	.	.	.	.
=139	=139	=139	=139	=139	=139
*	*^	*	*	*	*^
*ped	*	*	*	*	*	*	*
!	!	!	!	!LO:TX:t=cresc.:problem:dynamics with extention lines 	!	!	!
!	!	!	!	!	!	!	!LO:HP:i:t=cresc.:ext=ud
(>16FFLL	.	.	8dd- 8a- 8d-)	4ryy	.	<	.
16AA-	.	.	.	.	.	.	.
16D-	.	.	8r	.	.	.	.
16F	.	.	.	.	.	.	.
*	*	*	*8va	*	*	*	*
16A-	4	.	8ryy	(>8aaa- 8aa-	.	.	.
16d-JJ	2	.	.	.	.	.	.
16a-LL	.	1	[<4.ddd-	8aaa-L 8aa-\	.	.	>
16d-	.	.	.	.	.	.	.
16A-	.	.	.	8ggg 8gg	.	.	.
16F	.	.	.	.	.	.	.
16D-	.	.	.	8fffJ 8ff)	.	.	]
16AA-JJ)	.	.	.	.	.	.	.
*Xped	*	*	*	*	*	*	*
.	.	.	.	.	.	.	.
*	*v	*v	*	*	*	*	*
=140	=140	=140	=140	=140	=140	=140
*ped	*	*	*	*	*	*
(>16GGLL	.	8eee-/ 8ddd-/] 8ee-/	8ryy	.	.	>
*	*	*X8va	*	*	*	*
16D-	.	.	.	.	.	.
!	!	!LO:TX:a:t=loco.	!	!	!	!
16E-	.	4ryy	(>8cccL 8cc	.	.	.
16d-	.	.	.	.	.	.
16E-	.	.	8bb-J 8b-	.	.	.
*Xped	*	*	*	*	*	*
.	.	.	.	.	.	.
16D-JJ)	.	.	.	.	.	.
*ped	*	*	*	*	*	*
!	!	!	!LO:TX:a:i:t=ten.	!	!	!
(>16FFLL	.	4.dd-/	8aa-L 8a-\	.	.	.
16D-	.	.	.	.	.	.
16A-	.	.	8gg 8g	.	.	.
16d-	.	.	.	.	.	.
16A-	.	.	8ffJ 8f	.	.	.
*Xped	*	*	*	*	*	*
16D-JJ)	.	.	.	.	[	]
*	*	*	*	*	*v	*v
*	*	*v	*v	*	*
!!LO:LB:g=original
=141	=141	=141	=141	=141
*ped	*	*	*	*
(>16GGLL	.	8ee-/ 8dd-/ 8e-/	.	.
16E-	.	.	.	.
16B-	.	2ff/ 2dd-/ [</2f	.	>
16d-	.	.	.	.
16B-	.	.	.	.
*Xped	*	*	*	*
.	.	.	.	.
16E-JJ)	.	.	.	.
*ped	*	*	*	*
(>16AAnLL	.	.	.	.
16E-	.	.	.	.
16F	.	.	.	.
16c	.	.	.	.
16F	.	8ee-/ 8cc/ 8f/]	.	]
*Xped	*	*	*	*
16E-JJ)	.	.	.	.
=142	=142	=142	=142	=142
*	*	*^	*	*
*^	*	*	*	*	*
.	.	.	8qee-/	.	.	<
*ped	*	*	*	*	*	*
4ryy	(16BB-\LL	.	8dd-L	4.a- 4.f	.	.
.	16F	.	.	.	.	.
.	16A-	.	8cc	.	.	.
.	16d-	.	.	.	.	.
4ryy	16A-	.	8b-J	.	.	.
*Xped	*	*	*	*	*	*
.	16FJJ)	.	.	.	.	.
*ped	*	*	*	*	*	*
.	(16EE-LL\	.	4cc/ 4g/ 4d-/	4.ryy	.	[
.	16BB-	.	.	.	.	.
8ryy	16E-	.	.	.	.	.
.	16G	.	.	.	.	.
N[>8E-/	16E-	.	8e-/ 8d-/	.	.	.
*Xped	*	*	*	*	*	*
.	16BB-JJ)	.	.	.	.	.
*v	*v	*	*	*	*	*
*	*	*v	*v	*	*
=143	=143	=143	=143	=143
*	*	*	*	*^
*ped	*	*	*	*	*
8E-N] 8AA-	.	8a- 8c 8A-	.	.	.
4r	.	8r)	.	.	.
!	!	!LO:TX:t=P:diminuendolike accent:problem	!	!	!
!	!	!LO:TX:t=P:problem:nie wyświetla się belkowanie	!	!	!LO:DY:rj
.	.	(>8aa-L^<	.	.	p
4r	.	8a-\J)	.	.	.
.	.	8r	.	.	.
!	!	!LO:TX:t=P:diminuendolike accent:problem	!	!	!
!	!	!LO:TX:t=P:cross-measure beam:problem	!	!	!
8r	.	(>8aa-L^<	.	.	.
*	*	*	*	*v	*v
=144	=144	=144	=144	=144
2.rF	.	8a-J)\	.	.
.	.	8r	.	.
!	!	!LO:TX:t=P:diminuendolike accent:problem	!	!
!	!	!LO:TX:t=P:problem:nie wyświetla się belkowanie	!	!
.	.	(>8aa-L^<	.	.
.	.	8a-\J)	.	.
.	.	8r	.	.
.	.	(>8aa-	.	.
!!LO:PB:g=original
=145	=145	=145	=145	=145
*ped	*	*	*	*
!LO:TX:t=P:mixed beam:problem	!	!	!	!
8AAA-L/	.	8a-)/	.	]
8r	.	8r	.	.
*Xped	*	*	*	*
!	!	!LO:TX:t=P:problem:nie wyświetla się belkowanie	!	!
(>\8d-J 8A-\ 8E-\	.	(>8ffL 8g-X	.	.
*ped	*	*	*	*
8AA-L)	.	8a-\J)	.	.
8r	.	8r	.	.
*Xped	*	*	*	*
!	!	!LO:TX:t=P:cross-measure beam:problem	!	!
(8cJ 8A- 8E-	.	(>8ee- 8g-L	.	.
=146	=146	=146	=146	=146
*ped	*	*	*	*
8D-L)	.	8a-)J\	.	.
8r	.	8r	.	.
(>8d-J 8A-	.	(>8dd-/ [<8f/	.	.
.	.	8qee-/	.	.
!	!	!LO:TX:t=P:problem:nie wyświetla się belkowanie	!	!
8BB-L)	.	8dd-/L 8f]/	.	.
8r	.	8cc 8e-	.	.
*Xped	*	*	*	*
(>8A-J 8F	.	8b-J [<8d-	.	.
=147	=147	=147	=147	=147
*ped	*	*	*	*
8EE-L)\	.	8e- 8d-])	.	.
8r	.	8r	.	.
!	!	!LO:TX:t=P:problem:nie wyświetla się belkowanie	!	!
(>8A-J 8E-	.	(</8ccL 8d-/	.	.
8EE-L\)	.	8e-J)	.	.
8r	.	8r	.	.
*Xped	*	*	*	*
!	!	!LO:TX:t=P:cross-measure beam:problem	!	!
(8GJ 8E-	.	(</8b-L 8d-/	.	.
=148	=148	=148	=148	=148
*^	*	*	*	*
*	*	*	*^	*	*
*ped	*	*	*	*	*	*
!	!LO:TX:t=P:mixed beam:problem	!	!	!	!	!
4.ryy	8AAA-L/)	.	8e-J)/	4.ryy	.	.
.	8r	.	8r	.	.	.
.	\N[>8A-J N[>8E-\	.	(>8a- [<8c	.	.	>
.	.	.	8qb-/	.	.	.
!	!	!LO:TX:t=P:problem:nie wyświetla się belkowanie	!	!	!	!
8E-L/N]	4.AA-) [>4A-N]	.	8a-L 8c]	4.ryy	.	.
*Xped	*	*	*	*	*	*
8F-X	.	.	8g 8d-	.	.	.
[>8E-J	.	.	[>8a-J [<8c	.	.	.
*	*	*	*v	*v	*	*
*v	*v	*	*	*	*
=149	=149	=149	=149	=149
*ped	*	*	*	*
8A-N] 8E-] 8AA-L	.	8a-]) 8c]	.	]
8r	.	8r	.	.
*Xped	*	*	*	*
!	!	!LO:TX:t=P:diminuendolike accent:problem	!	!
!	!	!LO:TX:t=P:problem:nie wyświetla się belkowanie	!	!
(>8B-J 8E-	.	(>8ffL 8g-X^<	.	.
8AA-L)	.	8a-\J)	.	.
8r	.	8r	.	.
!	!	!LO:TX:t=P:diminuendolike accent:problem	!	!
!	!	!LO:TX:t=P:cross-measure beam:problem	!	!
(>8cJ 8E-	.	(8ee- 8g-L^<	.	.
=150	=150	=150	=150	=150
*ped	*	*	*	*
8D-L)	.	8a-J)\	.	.
8r	.	8r	.	>
(>8d-J 8A-	.	(>/8dd- [<8f/	.	.
.	.	8qee-/	.	.
!	!	!LO:TX:t=P:problem:nie wyświetla się belkowanie	!	!
8BB-L)	.	8dd-/L 8f]/	.	.
8r	.	8cc 8e-	.	.
*Xped	*	*	*	*
8fJ 8A-	.	8b-J 8d-	.	.
!!LO:LB:g=original
=151	=151	=151	=151	=151
*ped	*	*	*	*
8EE-L/	.	8e- 8d-)	.	]
8r	.	8r	.	.
*Xped	*	*	*	*
!	!	!LO:TX:t=P:diminuendolike accent:problem	!	!
!	!	!LO:TX:t=P:problem:nie wyświetla się belkowanie	!	!
(<8FJ 8BB-	.	8cc/L (<8d-/^<	.	.
*ped	*	*	*	*
8EE-L)/	.	8e-J)	.	.
8r	.	8r	.	.
*Xped	*	*	*	*
!	!	!LO:TX:t=P:cross-measure beam:problem	!	!
(<8GJ 8BB-	.	(8b-/ 8d-L/	.	.
=152	=152	=152	=152	=152
*^	*	*	*	*
*ped	*	*	*	*	*
!LO:TX:t=P:mixed beam:problem	!	!	!	!	!
4.ryy	8AAA-L)/	.	8e-J)/	.	.
.	8r	.	8r	.	.
.	\[>8A-J N[>8E-\	.	(>8a- [<8c^<	.	.
.	.	.	8qb-/	.	.
!	!LO:TX:t=P:problem:nie wyświetla się belkowanie	!	!	!	!
8E-L/N]	N[>4.A-]> 4.AA-	.	8a-L 8c]	.	.
*Xped	*	*	*	*	*
8F-X	.	.	8g 8d-	.	.
[>8E-J	.	.	[>8a-J [<8c	.	.
=153	=153	=153	=153	=153	=153
*ped	*	*	*	*	*
4.ryy	8A-N] 8E-] 8AA-L	.	8a-] 8c])	.	.
.	8r	.	8r	.	.
!	!LO:S:s=2:note:problem:note-level slur	!	!	!	!
.	[>8A-J (>8E-	.	(>8a- [<8c	.	>
.	.	.	8qb-/	.	.
!	!LO:S:s=2:note:problem:note-level slur	!	!	!	!
8E-L/	4.A-] 4.AA-)	.	8a-L 8c]	.	.
*Xped	*	*	*	*	*
8F-X	.	.	8g 8d-	.	.
8E-J	.	.	[>8a-J [<8c	.	]
*v	*v	*	*	*	*
=154	=154	=154	=154	=154
*	*	*^	*	*
*ped	*	*	*	*	*
(>4AA-	.	8a-]) 8c]	4ryy	.	<
.	.	8r	.	.	.
*Xped	*	*	*	*	*
8A- 8E-	.	4a-^>	(>8cL	.	.
*ped	*	*	*	*	*
4AA-	.	.	8d-J)	.	.
.	.	8ryy	8rB	.	.
!	!	!LO:TX:t=P:cross-measure beam:problem	!LO:TX:t=P:cross-measure beam:problem	!	!
8A- 8F-X	.	[8a-^>	(<8B-	.	.
*Xped	*	*	*	*	*
.	.	.	.	.	.
=155	=155	=155	=155	=155	=155
4AA-	.	8a-]	8f-X)	.	.
.	.	8r	8ryy	.	.
8B- 8F-X	.	4a-^>	(>8d-L	.	.
*ped	*	*	*	*	*
4AA-	.	.	8e-J)	.	[
.	.	8ryy	8rd	.	.
8G-X	.	(>8a-	(<8c	.	.
*Xped	*	*	*	*	*
.	.	.	.	.	.
*	*	*v	*v	*	*
*kcancel	*kcancel	*kcancel	*kcancel	*kcancel
!!LO:LB:g=original
==156||	==156||	==156||	==156||	==156||
*k[f#c#g#d#]	*	*k[f#c#g#d#]	*	*
*	*	*^	*	*
!	!	!LO:TX:i:t=mezza voce.	!LO:TX:b:i:t=legato.	!	!
8CC#'\)	.	8g#)	8e)	.	.
(>16BBB#XLL	.	8r	4ryy	.	.
16CC#	.	.	.	.	.
!	!	!LO:S:s=1:note:problem:note-level slur	!	!	!
16FF#	.	(>4.g#^> 4.c# 4.G#<	.	.	.
16EEJJ	.	.	.	.	.
16DD#LL	.	.	4.ryy	.	.
16EE	.	.	.	.	.
16AA	.	.	.	.	.
16GG#	.	.	.	.	.
16FF##X	.	[>8cc# [<8e [<8c#	.	.	.
16GG#JJ	.	.	.	.	.
*	*	*v	*v	*	*
=157	=157	=157	=157	=157
16D#LL\	.	8cc#L] 8e] 8c#]	.	>
16C#	.	.	.	.
16BB#X	.	8b 8e 8c#	.	.
16C#	.	.	.	.
16C##X	.	8aJ 8f# 8B#X	.	.
16D#JJ	.	.	.	.
16ELL	.	8g#L 8c# 8G#<'>	.	.
16E#X	.	.	.	]
16F#	.	8e'>) 8c#	.	.
16F##X	.	.	.	.
16G#	.	8f#'>J 8c#	.	.
16AJJ	.	.	.	.
=158	=158	=158	=158	=158
8G# 8C#)	.	8g# 8e 8c#	.	.
(>16B#XLL	.	8r	.	.
16c#	.	.	.	.
16d#	.	4.g#^> 4.e	.	.
16c#JJ	.	.	.	.
16BnLL	.	.	.	.
16cn	.	.	.	.
16dn	.	.	.	.
16c	.	.	.	.
16d	.	(>[>8g#^> [<8e	.	.
16cJJ	.	.	.	.
=159	=159	=159	=159	=159
16A#XLL	.	8g#L] 8e]	.	.
16B	.	.	.	.
16c#	.	8g# 8e	.	.
16B	.	.	.	.
16c#	.	8aJ 8f# 8e	.	.
16BJJ)	.	.	.	.
(>8BBL	.	8bL 8a 8d#	.	.
16C#L	.	8e 8A	.	.
16BB	.	.	.	.
16C#	.	8f#J 8d# [<8B 8A	.	.
16BBJJ	.	.	.	.
!!LO:LB:g=original
=160	=160	=160	=160	=160
!	!	!LO:TX:t=P:brak zakończenia ligatury:problem	!	!
8EE\L)	.	8g# 8e 8B)] 8G#	.	.
(>16AAL	.	8r	.	.
16GG#	.	.	.	.
16DD#	.	8g#^> 8f# 8B#X 8G#	.	.
16GG#JJ	.	.	.	.
16CC#LL	.	4r	.	.
16GG#	.	.	.	.
16FF##X	.	.	.	.
16GG#	.	.	.	.
16D#	.	[>8g#^> [>8e [>8c# 8G#	.	.
16C#JJ	.	.	.	.
=161	=161	=161	=161	=161
*	*	*^	*	*
16BB#XLL	.	(>4g#] 4e] 4c#]	4.G#	.	.
16C#	.	.	.	.	.
16F#	.	.	.	.	>
16E	.	.	.	.	.
16D#	.	8cc# 8e 8c#	.	.	.
16EJJ	.	.	.	.	.
16ALL	.	8cc#L 8e 8c#	4.ryy	.	.
16G#	.	.	.	.	.
16F##X	.	8b 8e 8c#	.	.	.
16G#	.	.	.	.	.
16d#	.	8aJ 8e	.	.	]
16c#JJ	.	.	.	.	.
*	*	*v	*v	*	*
=162	=162	=162	=162	=162
16B#XLL	.	8g#L 8e)	.	.
16c#	.	.	.	.
16c##X	.	8g#'	.	.
16d#	.	.	.	.
16f#	.	8a#X'J 8g#	.	.
16eJJ	.	.	.	.
16c##LL	.	8b' 8g#	.	.
16d#	.	.	.	.
16e	.	8r	.	.
16d#	.	.	.	.
!	!	!LO:TX:t=P:diminuendolike accent:problem	!	!
16cn#	.	(<8ee 8g# 8e^<	.	.
16G#JJ	.	.	.	.
=163	=163	=163	=163	=163
16A#XLL	.	8dd# 8g# 8d#)	.	.
16B	.	.	.	.
16c#	.	8r	.	.
16B	.	.	.	.
!	!	!LO:TX:t=P:diminuendolike accent:problem	!	!
16G#	.	[>8dd# (>8b [<8g# [<8d#^<	.	.
16BBJJ	.	.	.	.
!	!	!LO:S:s=2:note:problem:note-level slur	!	!
8D#L)	.	8dd#] 8a#) 8g#] 8d#]	.	.
(>16EL	.	8r	.	.
16D#	.	.	.	.
!	!	!LO:S:s=1:note:problem:note-level slur	!	!
16E	.	(>8cc# 8a# 8f##X 8d# 8c#	.	.
16D#JJ	.	.	.	.
!!LO:LB:g=original
=164	=164	=164	=164	=164
*ped	*	*	*	*
8GG#)	.	(>16gg#LL)	.	.
.	.	16g#	.	.
8r	.	16gg#	.	.
.	.	16gg#	.	.
(>4.d# 4.G# 4.F#	.	16ggg#	.	.
.	.	16gg#JJ)	.	.
.	.	(>16gg#LL	.	.
!	!	!LO:TX:t=cresc. _:problem:dynamics with extention lines	!	!
!	!	!	!	!LO:HP:i:t=cresc.:ext=ud
.	.	16g#	.	<
.	.	16gg#	.	.
*Xped	*	*	*	*
.	.	16gg#	.	.
[>8c# [>8G# [<8E	.	16ggg#	.	.
.	.	16gg#JJ)	.	.
=165	=165	=165	=165	=165
*^	*	*	*	*
4.ryy	4c#] 4G#] 4E]	.	(>16gg#LL	.	.
.	.	.	16g#	.	.
.	.	.	16gg#	.	.
.	.	.	16gg#	.	.
.	8B 8F# 8D#	.	16ggg#	.	.
.	.	.	16gg#JJ)	.	.
8AL	4.C#	.	(>16gg#LL	.	.
.	.	.	16g#	.	.
8E	.	.	16gg#	.	.
.	.	.	16gg#	.	.
8F#J	.	.	16ggg#	.	.
.	.	.	16gg#JJ)	.	.
*v	*v	*	*	*	*
=166	=166	=166	=166	=166
*ped	*	*	*	*
8G#/ 8BB#X/ 8GG#)/	.	(>16gg#LL	.	.
.	.	16g#	.	.
8r	.	16gg#	.	.
.	.	16gg#	.	.
(>4.d# 4.G# 4.F#	.	16ggg#	.	.
.	.	16gg#JJ)	.	.
.	.	(>16gg#LL	.	.
.	.	16g#	.	.
.	.	16gg#	.	.
*Xped	*	*	*	*
.	.	16gg#	.	.
*ped	*	*	*	*
[>8c# [>8G# [<8E	.	16ggg#	.	.
.	.	16gg#JJ)	.	.
=167	=167	=167	=167	=167
*^	*	*	*	*
4.ryy	4c#] 4G#] 4E]	.	(>16gg#LL	.	.
.	.	.	16g#	.	.
*Xped	*	*	*	*	*
.	.	.	16gg#	.	.
.	.	.	16gg#	.	.
.	8B 8F# 8D#	.	16ggg#	.	.
.	.	.	16gg#JJ)	.	.
*ped	*	*	*	*	*
8AL	4.C#	.	(>16gg#LL	.	.
.	.	.	16g#	.	.
8E	.	.	16gg#	.	.
.	.	.	16gg#	.	.
8F#J)	.	.	16ggg#	.	.
*Xped	*	*	*	*	*
.	.	.	16gg#JJ)	.	[
*v	*v	*	*	*	*
!!LO:PB:g=original
=168	=168	=168	=168	=168
*	*	*	*	*^
*ped	*	*	*	*	*
8GG# 8GGG#	.	(>16gg#LL	.	.	.
.	.	16g#	.	.	.
8r	.	16gg#	.	.	.
.	.	16gg#	.	.	<
(>4.G# 4.D# 4.BB#X	.	16ggg#	.	.	.
.	.	16gg#JJ)	.	.	.
.	.	(>16gg#LL	.	.	.
.	.	16g#	.	.	.
.	.	16gg#	.	.	.
.	.	16gg#	.	.	.
[>8A#X [>8E [<8C#	.	16ggg#	.	.	.
*Xped	*	*	*	*	*
.	.	16gg#JJ)	.	.	[
=169	=169	=169	=169	=169	=169
*ped	*	*	*	*	*
4A#]) 4E] 4C#]	.	(>16gg#LL	.	.	.
.	.	16g#	.	.	.
.	.	16gg#	.	.	.
.	.	16gg#	.	.	.
4.c# 4.G# 4.E	.	16ggg#	.	.	.
.	.	16gg#JJ)	.	.	.
.	.	(>16gg#LL	.	.	.
.	.	16g#	.	.	.
.	.	16gg#	.	.	.
.	.	16gg#	.	.	.
*Xped	*	*	*	*	*
.	.	.	.	.	.
8B#X 8G# 8D#	.	16ggg#	.	.	.
.	.	16gg#JJ)	.	.	.
*	*	*	*	*v	*v
=170	=170	=170	=170	=170
*ped	*	*	*	*
(>4GG#	.	(>16gg#LL	.	.
.	.	16g#	.	.
.	.	16gg#	.	.
.	.	16gg#	.	.
8A#X 8G# 8C#	.	16ggg#	.	.
*Xped	*	*	*	*
.	.	16gg#JJ)	.	.
*ped	*	*	*	*
4GG#	.	(>16gg#LL	.	.
.	.	16g#	.	.
.	.	16gg#	.	.
.	.	16gg#	.	.
8B#X 8G# 8D#	.	16ggg#	.	.
.	.	16gg#JJ)	.	[[
!!LO:LB:g=original
=171	=171	=171	=171	=171
4GG#	.	(>16gg#LL	.	.
.	.	16g#	.	.
.	.	16gg#	.	.
*Xped	*	*	*	*
.	.	16gg#	.	.
*ped	*	*	*	*
8e 8B#X 8G# 8F#	.	16ggg#	.	.
.	.	16gg#JJ)	.	.
4GG# 4GGG#	.	(>16gg#LL	.	.
.	.	16g#	.	.
.	.	16gg#	.	.
.	.	16gg#	.	.
8d# 8B# 8G# 8F#)	.	16ggg#	.	.
*Xped	*	*	*	*
.	.	16gg#JJ)	.	.
=172	=172	=172	=172	=172
*ped	*	*	*	*
!	!	!LO:TX:t=P:diminuendolike accent:problem	!	!LO:DY:rj
8C#/L 8CC#/	.	(>16gg#LL 16ee 16cc#^<	.	ff
.	.	16g#	.	.
8r	.	16gg# 16ee 16cc#	.	.
.	.	16gg#	.	.
8c#J 8G# 8E	.	16ggg# 16eee 16ccc#	.	.
.	.	16gg#JJ)	.	.
!	!	!LO:TX:t=P:diminuendolike accent:problem	!	!
8C#L 8CC#	.	(>16gg#LL 16ee 16cc#^<	.	.
.	.	16g#	.	.
8r	.	16gg#	.	.
.	.	16ccc#	.	.
*clefG2	*	*	*	*
*	*	*8va	*	*
8cc#J 8g# 8e 8c#	.	16cccc# 16eee	.	.
*Xped	*	*	*	*
.	.	16ccc#JJ)	.	.
*clefF4	*	*	*	*
=173	=173	=173	=173	=173
*ped	*	*	*	*
8c#/L 8C#/	.	16cccc#LL 16aaa	.	.
.	.	16ccc#	.	.
8r	.	16bbb 16ggg#	.	.
.	.	16bb	.	.
*clefG2	*	*	*	*
8cc#J 8a 8f# 8c#	.	16aaa 16fff#	.	.
*Xped	*	*	*	*
.	.	16aaJJ	.	.
*clefF4	*	*	*	*
*ped	*	*	*	*
8c#L 8C#\	.	16ggg#LL 16eee	.	.
.	.	16gg#	.	.
8r	.	16eee 16ccc#	.	.
.	.	16ee	.	.
8g#J 8e 8c# 8G#	.	16fff# 16ddd#	.	.
*Xped	*	*	*	*
.	.	16ff#JJ	.	.
*	*	*X8va	*	*
!!LO:LB:g=original
=174	=174	=174	=174	=174
*ped	*	*	*	*
!	!	!LO:TX:a:t=loco.	!	!
4C# 4CC#	.	(>16ggg#LL 16eee 16ccc#	.	>
.	.	16gg#	.	.
.	.	16gg# 16ee 16cc#	.	.
.	.	16g#	.	]
8e 8c# 8G# 8E	.	16gg# 16ee	.	.
*Xped	*	*	*	*
.	.	16gg#JJ)	.	.
*ped	*	*	*	*
4Cn 4CCn	.	(>16ggg#LL 16eee	.	>
.	.	16gg#	.	.
.	.	16gg# 16ee	.	.
.	.	16g#	.	]
8e 8cn 8G# 8E	.	16gg# 16ee	.	.
*Xped	*	*	*	*
.	.	16gg#JJ)	.	.
=175	=175	=175	=175	=175
*ped	*	*	*	*
4BB 4BBB	.	(>16ggg#LL 16eee	.	>
.	.	16gg#	.	.
.	.	16gg# 16ee 16b	.	.
.	.	16g#	.	]
*Xped	*	*	*	*
.	.	.	.	.
8eJ 8G# 8E	.	16aa 16ff#	.	.
.	.	16aJJ	.	.
*ped	*	*	*	*
4BB 4BBB	.	16bbLL 16gg#	.	.
.	.	16b	.	.
.	.	16ee 16g#	.	.
.	.	16e	.	.
8F# 8B 8d#	.	16ff# 16a	.	.
*Xped	*	*	*	*
.	.	16f#JJ)	.	.
=176	=176	=176	=176	=176
*ped	*	*	*	*
4E 4EE	.	(>16gg#LL 16ee 16b	.	>
.	.	16g#	.	.
.	.	16gg# 16ee 16b	.	.
.	.	16gg#	.	]
8e 8B 8G# 8E	.	16ggg# 16eee 16bb	.	.
*Xped	*	*	*	*
.	.	16gg#JJ)	.	.
*ped	*	*	*	*
4D# 4DD#	.	(>16gg#LL 16ee 16b#X	.	>
.	.	16g#	.	.
.	.	16gg# 16ee 16b#	.	.
.	.	16gg#	.	.
8e 8B#X 8G# 8E	.	16ggg# 16eee 16bb#X	.	]
*Xped	*	*	*	*
.	.	16gg#JJ)	.	.
!!LO:LB:g=original
=177	=177	=177	=177	=177
*ped	*	*	*	*
8C#L 8CC#'	.	(>16gg#LL 16ee 16cc#	.	>
.	.	16g#	.	.
8r	.	16gg# 16ee 16cc#	.	.
.	.	16gg#	.	]
*clefG2	*	*	*	*
*	*	*8va	*	*
8cc#:J 8c#: 8e: 8G#:	.	16cccc# 16eee	.	.
*Xped	*	*	*	*
.	.	16ccc#JJ	.	.
*clefF4	*	*	*	*
!	!	!LO:TX:t=P:diminuendolike accent:problem	!	!
*ped	*	*	*	*
8c#/L 8C#'/	.	(>16cccc#LL) 16aaa^<	.	.
.	.	16ccc#	.	.
8r	.	16bbb 16ggg#	.	.
.	.	16bb	.	.
*clefG2	*	*	*	*
!	!	!LO:TX:t=P:diminuendolike accent:problem	!	!
8cc#:J 8f#: 8c#: 8A:	.	16aaa 16fff#^<	.	.
*Xped	*	*	*	*
.	.	16aaJJ	.	.
*clefF4	*	*	*	*
=178	=178	=178	=178	=178
*ped	*	*	*	*
8c#\L 8C#\	.	16ggg#LL 16eee	.	.
.	.	16gg#	.	.
*clefG2	*	*	*	*
8cc# 8e	.	16ggg# 16eee	.	.
*Xped	*	*	*	*
.	.	16gg#	.	.
*clefF4	*	*	*	*
*ped	*	*	*	*
8F#J 8FF#	.	16aaa#X 16eee	.	.
*Xped	*	*	*	*
.	.	16aa#XJJ	.	.
*ped	*	*	*	*
8BL 8BB	.	16bbbLL 16eee	.	.
.	.	16bb	.	.
*clefG2	*	*	*	*
8b 8d#	.	16fff# 16ddd#	.	.
*Xped	*	*	*	*
.	.	16ff#	.	.
*clefF4	*	*	*	*
8eJ 8E	.	16ggg# 16dddn	.	.
.	.	16gg#JJ	.	.
=179	=179	=179	=179	=179
*ped	*	*	*	*
8AL 8AA	.	16aaaLL 16dddn	.	.
.	.	16aa	.	.
8a 8c#	.	16eee 16ccc#	.	.
*Xped	*	*	*	*
.	.	16ee	.	.
8d#XJ 8D#X	.	16fff# 16ccc#	.	.
.	.	16ff#JJ	.	.
*ped	*	*	*	*
8G#L 8GG#	.	16ggg#LL 16ccc#\	.	.
.	.	16gg#	.	.
8g# 8B#X	.	16ddd#X 16bb#X	.	.
*Xped	*	*	*	*
.	.	16dd#	.	.
8c#J 8C#	.	16eee#X 16bbn	.	.
.	.	16ee#XJJ	.	.
*	*	*X8va	*	*
!!LO:LB:g=original
=180	=180	=180	=180	=180
*ped	*	*	*	*
!	!	!LO:TX:a:t=loco.	!	!
8F#L 8FF#	.	16fff#LL 16bb	.	.
.	.	16ff#	.	.
8f# 8A#X	.	16ccc# 16aa#X	.	.
.	.	16cc#	.	.
*Xped	*	*	*	*
8BJ 8BB	.	16ddd# 16aan	.	.
.	.	16dd#JJ	.	.
*ped	*	*	*	*
8EL 8EE	.	16eeeLL 16aa	.	.
.	.	16ee	.	.
8e 8G#	.	16bb 16gg#	.	.
.	.	16b	.	.
8A#XJ 8AA#X	.	16ccc# 16gg#	.	.
*Xped	*	*	*	*
.	.	16cc#JJ	.	.
=181	=181	=181	=181	=181
*ped	*	*	*	*
8D#L 8DD#	.	16ddd#LL 16gg#	.	.
.	.	16dd#	.	.
8d# 8F##X	.	16aa#X 16ff##X	.	.
.	.	16a#X	.	.
*Xped	*	*	*	*
8G#J 8GG#	.	16bb#X 16ff#X	.	.
.	.	16b#XJJ	.	.
*ped	*	*	*	*
8C#/L 8CC#/	.	16ccc#LL 16ff#X	.	.
.	.	16cc#	.	.
8c# 8E#X	.	16gg# 16ee#X	.	.
.	.	16g#	.	.
8F##J 8FF#	.	16aa# 16een	.	.
*Xped	*	*	*	*
.	.	.	.	.
.	.	16a#JJ	.	.
=182	=182	=182	=182	=182
*	*	*	*	*^
*ped	*	*	*	*	*
8BB (<8BBB'	.	8bb') 8dd# 8b	.	fz	.
4r	.	8r	.	.	.
.	.	4B	.	.	.
16AAA#XLL	.	.	.	.	.
16BBB	.	.	.	.	.
16BB	.	8r	.	.	.
16BBB	.	.	.	.	.
!	!	!LO:TX:t=P:brak początku ligatury:problem	!	!	!
16BB	.	[<8B^>	.	.	fz
!LO:TX:t=P:łuk kończy się na kresce taktowej:problem	!	!	!	!	!
16BBBJJ)	.	.	.	.	.
*	*	*	*	*v	*v
!!LO:PB:g=original
=183	=183	=183	=183	=183
*	*	*	*	*^
16AAA#XLL	.	8B]	.	>	.
16BBB	.	.	.	.	.
16BB	.	8r	.	.	.
16BBB	.	.	.	.	.
16BB	.	4B^>	.	.	fz
16BBBJJ	.	.	.	.	.
16AAA#LL	.	.	.	.	.
16BBB	.	.	.	.	.
16BB	.	8rf	.	.	.
16BBB	.	.	.	.	.
!	!	!LO:TX:t=P:cross-measure beam:problem	!	!	!
16BB	.	[<8B^>L	.	.	fz
16BBBJJ	.	.	.	]	.
*	*	*	*	*v	*v
=184	=184	=184	=184	=184
16AAA#XLL	.	8B]J	.	.
16BBB	.	.	.	.
16BB	.	8r	.	.
16BBB	.	.	.	.
!	!	!LO:TX:a:t=P:problem:nie wyświetla się belkowanie	!	!
!	!	!LO:S:s=1:note:problem:note-level slur	!	!
16BB	.	(>8g#L 8B 8A	.	p
16BBBJJ	.	.	.	.
16AAA#LL	.	8BJ)	.	.
16BBB	.	.	.	.
16BB	.	8r	.	.
16BBB	.	.	.	.
!	!	!LO:S:s=1:note:problem:note-level slur	!	!
!	!	!LO:TX:t=P:cross-measure beam:problem	!	!
16BB	.	(>8f#L 8d# 8A	.	.
16BBBJJ	.	.	.	.
=185	=185	=185	=185	=185
*	*	*^	*	*
16AAA#XLL	.	8BJ)	4.ryy	.	.
16BBB	.	.	.	.	.
16BB	.	8r	.	.	.
16BBB	.	.	.	.	.
16BB	.	(>8e [<8G#	.	.	.
16BBBJJ	.	.	.	.	.
.	.	8qf#/	.	.	.
!	!	!LO:TX:t=P:problem:nie wyświetla się belkowanie	!	!	!
16AAA#LL	.	8eL	4.G#]	.	.
16BBB	.	.	.	.	.
16BB	.	8d#	.	.	.
16BBB	.	.	.	.	.
16BB	.	[<8c#J	.	.	.
16BBBJJ)	.	.	.	.	.
=186	=186	=186	=186	=186	=186
16AAA#XLL\	.	4c#] 4Gn<	4ryy	.	.
16BBB	.	.	.	.	.
16BB	.	.	.	.	.
16BBB	.	.	.	.	.
16BB	.	4.d#	8E<	.	.
16BBBJJ	.	.	.	.	.
16AAA#LL\	.	.	4G<	.	.
!	!	!LO:TX:a:t=smorz_:dur=5q:ext=ud:problem:text with extention lines	!	!	!
16BBB	.	.	.	.	.
16BB	.	.	.	.	.
16BBB	.	.	.	.	.
16BB	.	[<8c# 8E<	8ryy	.	.
16BBBJJ	.	.	.	.	.
*	*	*v	*v	*	*
!!LO:LB:g=original
=187	=187	=187	=187	=187
*^	*	*	*	*
[>4.Gn<	16AAA#XLL\	.	4c#] 4GnX<	.	.
.	16BBB	.	.	.	.
.	16BB	.	.	.	.
.	16BBB	.	.	.	.
.	16BB	.	[<8B	.	.
.	16BBBJJ	.	.	.	.
8G<L]/	16AAA#LL\	.	4.B_<	.	.
.	16BBB	.	.	.	.
8A< 8F#<	16BB	.	.	.	.
.	16BBB	.	.	.	.
8G<J 8E<	16BB	.	.	.	.
.	16BBBJJ	.	.	.	.
=188	=188	=188	=188	=188	=188
*ped	*	*	*	*	*
8F# 8BB	(16BBBLL	.	4B]	.	.
.	16FF#	.	.	.	.
4ryy	16F#	.	.	.	.
!	!	!	!LO:TX:a:i:t=sotto voce.	!	!
.	16FF#	.	.	.	.
.	16F#	.	8c#	.	.
*Xped	*	*	*	*	*
.	16FF#JJ)	.	.	.	.
*ped	*	*	*	*	*
(16BBBLL/	4.ryy	.	8d#L 8A	.	.
16AA	.	.	.	.	.
16A	.	.	8e	.	.
16AA	.	.	.	.	.
16A	.	.	8f#J	.	.
*Xped	*	*	*	*	*
16AAJJ)	.	.	.	.	.
*v	*v	*	*	*	*
=189	=189	=189	=189	=189
*	*	*^	*	*
*ped	*	*	*	*	*
(<16BBBLL/	.	4g# 4e	8G#	.	<
16GG#	.	.	.	.	.
16G#	.	.	8ryy	.	.
16GG#	.	.	.	.	.
16G#	.	8cc#/	8ryy	.	.
*Xped	*	*	*	*	*
16GG#JJ)	.	.	.	.	.
*ped	*	*	*	*	*
.	.	8qA#X/	.	.	.
(<16BBBLL/	.	[>4.cc#: [>4.e: [<4.A#:	4.ryy	.	.
16GGn	.	.	.	.	.
16Gn	.	.	.	.	[
16GG	.	.	.	.	.
16G	.	.	.	.	.
16GGJJ)	.	.	.	.	.
*	*	*v	*v	*	*
=190	=190	=190	=190	=190
(<16BBBLL	.	4cc#] 4e] 4A#]	.	.
16GGn	.	.	.	.
16Gn	.	.	.	.
16GG	.	.	.	.
16G	.	4.b 4.e 4.B	.	.
*Xped	*	*	*	*
.	.	.	.	.
16GGJJ	.	.	.	.
*ped	*	*	*	*
16BBBLL/	.	.	.	.
16GG	.	.	.	.
16G	.	.	.	.
16GG	.	.	.	.
!	!	!LO:TX:t=P:łuk kończy się na kresce taktowej:problem	!	!
16G	.	8a#X) 8e 8c#	.	.
*Xped	*	*	*	*
16GGJJ	.	.	.	.
!!LO:LB:g=original
=191	=191	=191	=191	=191
*	*	*^	*	*
16BBBLL/	.	4.d#/	4cc#\ 4c#\	.	.
16FF#	.	.	.	.	.
16F#	.	.	.	.	.
16E#X	.	.	.	.	.
16En	.	.	8b\ 8B\	.	.
16D#JJ	.	.	.	.	.
16DnLL/	.	4r	4.ryy	.	.
16C#	.	.	.	.	.
16Cn	.	.	.	.	.
16BB	.	.	.	.	.
!	!	!LO:TX:t=P:cross-measure beam:problem	!	!	!
16BB-X	.	[<8cn^>L	.	.	.
16AAJJ	.	.	.	.	.
*	*	*v	*v	*	*
=192	=192	=192	=192	=192
16AA-XLL	.	8cnX]J	.	.
16GGn	.	.	.	.
16FF#	.	8r	.	.
16FFn	.	.	.	.
!	!	!LO:TX:t=P:problem:nie wyświetla się belkowanie	!	!
16EE	.	(<8aL 8B-X	.	.
16EE-XJJ	.	.	.	.
16DD#LL	.	8cJ)	.	.
16DD-X	.	.	.	.
16CCn	.	8r	.	.
16BBBn	.	.	.	.
16DDn	.	(8gn 8B-	.	.
16CCJJ	.	.	.	.
==193|	==193|	==193|	==193|	==193|
*k[b-e-a-d-]	*	*k[b-e-a-d-]	*	*
*	*	*^	*	*
*ped	*	*	*	*	*
16BBBnLL\	.	8c)	4.ryy	.	.
16CC/	.	.	.	.	.
16C	.	8r	.	.	.
16CC	.	.	.	.	.
16C	.	(>8f [<8An	.	.	.
16CCJJ	.	.	.	.	.
.	.	8qg/	.	.	.
16BBBLL\	.	8fL	4.A]	.	.
16CC/	.	.	.	.	.
16C	.	8en	.	.	.
16CC	.	.	.	.	.
16C	.	[<8dnJ	.	.	.
16CCJJ)	.	.	.	.	.
*Xped	*	*	*	*	*
.	.	.	.	.	.
!!LO:LB:g=original
=194	=194	=194	=194	=194	=194
*ped	*	*	*	*	*
!	!	!LO:TX:t=P:w tym takcie ligatura skierowana w górę:problem	!	!	!
16BBBnLL\	.	4dnX] 4A-X<	4ryy	.	.
16CC	.	.	.	.	.
16C	.	.	.	.	.
16CC	.	.	.	.	.
16C	.	4.en 4.c	8F<	.	.
*Xped	*	*	*	*	*
16CCJJ	.	.	.	.	.
*ped	*	*	*	*	*
16BBBLL\	.	.	4.A-<	.	.
16CC	.	.	.	.	.
16C	.	.	.	.	.
16CC	.	.	.	.	.
16C	.	8dn 8Bn 8F<	.	.	.
16CCJJ	.	.	.	.	.
*	*	*v	*v	*	*
=195	=195	=195	=195	=195
*^	*	*	*	*
[4.A-	16BBBnLL	.	4r	.	.
.	16CC	.	.	.	.
.	16C	.	.	.	.
.	16CC	.	.	.	.
*Xped	*	*	*	*	*
.	16C	.	[<2c)	.	.
.	16CCJJ	.	.	.	.
*ped	*	*	*	*	*
(>8A-L]	16BBBLL	.	.	.	.
.	16CC	.	.	.	.
8B- 8G	16C	.	.	.	.
.	16CC	.	.	.	.
8A-J 8F	16C	.	.	.	.
*Xped	*	*	*	*	*
.	16CCJJ	.	.	.	.
=196	=196	=196	=196	=196	=196
*	*	*	*^	*	*
*ped	*	*	*	*	*	*
!LO:S:s=2:note:problem:note-level slur	!	!	!	!	!	!
8G 8C)	(<16CCLL	.	4c]	4.ryy	.	.
.	16GG	.	.	.	.	.
4ryy	16G	.	.	.	.	.
.	16GG	.	.	.	.	.
.	16G	.	(>8dn	.	.	.
*Xped	*	*	*	*	*	*
.	16GGJJ	.	.	.	.	.
*ped	*	*	*	*	*	*
16CCLL/	4.ryy	.	8enL	4.d-X	.	<
16BB-	.	.	.	.	.	.
16B-	.	.	8f	.	.	.
16BB-	.	.	.	.	.	.
16B-	.	.	8gJ	.	.	.
*Xped	*	*	*	*	*	*
16BB-JJ	.	.	.	.	.	.
*v	*v	*	*	*	*	*
=197	=197	=197	=197	=197	=197
*ped	*	*	*	*	*
16CCLL/	.	4.an 4.f#X/ 4.c/	4ryy	.	[
16AAn	.	.	.	.	.
16An	.	.	.	.	.
16AA	.	.	.	.	.
16A	.	.	8ddn	.	.
*Xped	*	*	*	*	*
16AAJJ	.	.	.	.	.
.	.	(>8qBn/	.	.	.
!	!	!LO:S:s=1:note:problem:note-level slur	!	!	!
*ped	*	*	*	*	*
16CCLL/	.	[>4.dd) [<4.fn [<4.Bny	4.ryy	.	.
16AA-X	.	.	.	.	.
16A-X	.	.	.	.	.
16AA-	.	.	.	.	.
16A-	.	.	.	.	.
16AA-JJ	.	.	.	.	.
*	*	*v	*v	*	*
!!LO:LB:g=original
=198	=198	=198	=198	=198
!	!	!LO:TX:t=P:inny kierunek zakończenia środkowej ligatury:problem	!	!
16CCLL/	.	4ddnX] 4f] 4BnX]	.	>
16AA-X	.	.	.	.
16A-X	.	.	.	.
16AA-	.	.	.	.
*Xped	*	*	*	*
16A-	.	4.cc 4.f 4.c	.	.
16AA-JJ	.	.	.	.
*ped	*	*	*	*
16CCLL/	.	.	.	.
16AA-	.	.	.	.
16A-	.	.	.	.
16AA-	.	.	.	.
16A-	.	8bn 8f 8d-X	.	.
16AA-JJ	.	.	.	.
=199	=199	=199	=199	=199
*	*	*^	*	*
*ped	*	*	*	*	*
16CCLL/	.	4bnL 4f	4.c	.	.
16GG	.	.	.	.	.
16G	.	.	.	.	.
16F#X	.	.	.	.	.
16Fn	.	8en 8cc)	.	.	]
*Xped	*	*	*	*	*
.	.	.	.	.	.
16EnJJ	.	.	.	.	.
16E-XLL/	.	4r	4.ryy	.	.
16D-	.	.	.	.	.
16D-X	.	.	.	.	.
16C	.	.	.	.	.
!	!	!LO:TX:t=P:cross-measure beam:problem	!	!	!
16BBn	.	[<8dn^>L	.	.	.
16BB-XJJ	.	.	.	.	.
*	*	*v	*v	*	*
=200	=200	=200	=200	=200
*	*	*^	*	*
16AAnLL	.	8dnX]J	4ryy	.	.
16AA-X	.	.	.	.	.
16GG	.	8r	.	.	.
16FF#X	.	.	.	.	.
!	!	!LO:TX:t=P:problem:nie wyświetla się belkowanie	!	!	!
16FFn	.	(<8b-L 8f#X	4c	.	.
16EEnJJ	.	.	.	.	.
16EE-XLL	.	8dnyJ)	.	.	.
16DDn	.	.	.	.	.
16CC#X	.	8r	8ryy	.	.
16DD	.	.	.	.	.
16EE-	.	(<8an 8f#	8c	.	.
16DDJJ	.	.	.	.	.
!!LO:PB:g=original
=201	=201	=201	=201	=201	=201
*ped	*	*	*	*	*
16CC#XLL	.	8dn)	4.dn	.	.
16DDn	.	.	.	.	.
16Dn	.	8r	.	.	.
16DD	.	.	.	.	.
16D	.	&&(>8g 8B-	.	.	.
16DDJJ	.	.	.	.	.
.	.	8qa-/	.	.	.
16CC#LL	.	8gL 8d] 8B-	4.ryy	.	.
16DD	.	.	.	.	.
16D	.	8f 8c 8A-	.	.	.
16DD	.	.	.	.	.
*Xped	*	*	*	*	*
.	.	.	.	.	.
16D	.	8e-J 8B- 8G	.	.	.
16DDJJ	.	.	.	.	.
*	*	*v	*v	*	*
=202	=202	=202	=202	=202
*ped	*	*	*	*
16CC#XLL	.	4dn 4cn 4F#X<	.	.
!	!	!	!	!LO:HP:a
16DDn	.	.	.	.
16Dn	.	.	.	.
16DD	.	.	.	.
16D	.	8en 8c 8G<	.	.
16DDJJ	.	.	.	.
*Xped	*	*	*	*
.	.	.	.	.
16CC#LL	.	8f#XL 8An<	.	.
16DD	.	.	.	.
16D	.	8g 8d 8B-<	.	.
16DD	.	.	.	.
16D	.	8anJ 8f# 8c	.	.
16DDJJ	.	.	.	.
=203	=203	=203	=203	=203
*^	*	*	*	*^
*ped	*	*	*	*	*	*
4ryy	16CC#XLL\	.	4b- 4g 4B-<	.	.	.
.	16DDn	.	.	.	.	.
.	16Dn	.	.	.	.	.
.	16DD	.	.	.	.	.
4ryy	16D	.	8ee- 8cc 8e-	.	.	.
*Xped	*	*	*	*	*	*
.	.	.	.	.	.	.
.	16DDJJ	.	.	.	.	.
!	!	!	!LO:TX:t=cresc. _:problem:dynamics with extention lines	!	!	!
!	!	!	!	!	!	!LO:HP:i:t=cresc.:ext=ud
*ped	*	*	*	*	*	*
.	16CC#LL\	.	(>4ddn 4b- 4dn&&)	.	<	.
.	16DD	.	.	.	.	.
8ryy	16D	.	.	.	.	.
.	16DD	.	.	.	.	.
N[>8E-/	16E-	.	[>8dd-X [>8g [<8d-X	.	.	.
*Xped	*	*	*	*	*	*
.	.	.	.	.	.	.
.	16EE-JJ	.	.	.	.	[[
*v	*v	*	*	*	*	*
*	*	*	*	*v	*v
!!LO:LB:g=original
=204	=204	=204	=204	=204
*^	*	*	*	*
*	*	*	*^	*	*
*ped	*	*	*	*	*	*
8E-N]	16DDnLL	.	4dd-] 4g] 4d-]	4.e-	.	.
.	16EE-	.	.	.	.	.
8ryy	16E-	.	.	.	.	.
.	16EE-	.	.	.	.	.
8ryy	16E-	.	4.cc 4.g 4.d-	.	.	.
.	16EE-JJ	.	.	.	.	.
16DDLL/	4.ryy	.	.	4.e-	.	.
16EE-	.	.	.	.	.	.
16E-	.	.	.	.	.	.
16EE-	.	.	.	.	.	.
*Xped	*	*	*	*	*	*
16E-	.	.	[>8b- 8g [<8d-	.	.	.
16EE-JJ	.	.	.	.	.	.
*v	*v	*	*	*	*	*
=205	=205	=205	=205	=205	=205
16DDnLL/	.	4b-] 4d-X]	N[>4.e-	.	.
16EE-	.	.	.	.	.
16E-	.	.	.	.	.
16EE-	.	.	.	.	.
16E-	.	8a- 8c	.	.	.
16EE-JJ	.	.	.	.	.
.	.	8qb-/	.	.	.
16DDLL/	.	8a-L 8e-N] 8c	4.ryy	.	.
16EE-	.	.	.	.	.
16E-	.	8.g 8.d- 8.B-	.	.	.
16EE-	.	.	.	.	.
16E-	.	.	.	.	.
16EE-JJ	.	16fJk 16d- 16A-	.	.	.
*	*	*v	*v	*	*
=206	=206	=206	=206	=206
*ped	*	*	*	*
16DDnLL/	.	4e- 4d- 4G	.	.
16EE-	.	.	.	.
16E-	.	.	.	.
16EE-	.	.	.	.
16E-	.	8f [<8d- 8A-	.	.
*Xped	*	*	*	*
16EE-JJ	.	.	.	.
16DDLL/	.	8gL 8e- 8d-] 8B-	.	.
16EE-	.	.	.	.
16E-	.	8.a- [<8.e- 8.c	.	.
16EE-	.	.	.	.
16E-	.	.	.	.
!LO:TX:t=P:łuk kończy sie na kresce taktowej:problem	!	!	!	!
16EE-JJ)	.	16b-Jk 16g 16e-] 16d-	.	.
!!LO:LB:g=original
=207	=207	=207	=207	=207
16DDnLL	.	4cc/ 4a-/ 4c/	.	.
16EE-	.	.	.	.
16E-	.	.	.	.
16EE-	.	.	.	.
16E-	.	8ff 8dd- 8f	.	.
16EE-JJ	.	.	.	.
16DDLL	.	4ee-/ 4cc/ 4e-/	.	.
16EE-	.	.	.	.
16E-	.	.	.	.
16EE-	.	.	.	.
16E-	.	[>8ddn^</) [>8cc-X/ [<8dn/	.	.
16EE-JJ	.	.	.	.
=208	=208	=208	=208	=208
*ped	*	*	*	*
!LO:TX:t=P:mixed beam:problem	!	!	!	!
16EEE-LL/	.	/4ddnX] 4cc-X/] 4dnX/]	.	.
16A-\	.	.	.	.
16B-\	.	.	.	.
16c-X\	.	.	.	.
16B-\	.	(>/8ee- 8ccn/ 8e-/	.	.
*Xped	*	*	*	*
16A-JJ\	.	.	.	.
16E-LL	.	8ff-XL 8dd-X 8f-X	.	.
16A-	.	.	.	.
16B-	.	8ffn 8ddn 8fn	.	.
16c-	.	.	.	.
16B-	.	8gg-XJ 8ee- 8g-X	.	.
16A-JJ	.	.	.	.
=209	=209	=209	=209	=209
*ped	*	*	*	*
16EE-LL	.	4ggn 4een 4gn	.	.
16A-	.	.	.	.
16B-	.	.	.	.
16c-X	.	.	.	.
16B-	.	8aa- 8ff 8a-	.	.
*Xped	*	*	*	*
16A-JJ	.	.	.	.
16E-LL	.	8bb--L 8gg-X 8b--	.	.
16A-	.	.	.	.
16B-	.	8.bb-X 8.ggn 8.b-X	.	.
16c-	.	.	.	.
16B-	.	.	.	.
16A-JJ	.	16ccc-XJk 16aa- 16cc-X	.	.
!!LO:LB:g=original
=210	=210	=210	=210	=210
*ped	*	*	*	*
16E-LL 16EE-	.	8ccc-X 8aa- 8cc-X)	.	.
16A-	.	.	.	.
16B-	.	(>8ffL 4dd- 8f	.	.
16c-X	.	.	.	.
16B-	.	8gg-XJ 8ee- 8g-X	.	.
*Xped	*	*	*	*
16A-JJ	.	.	.	.
16E-LL	.	8ggnL 8een 8gn	.	.
16A-	.	.	.	.
16B-	.	8aa- 8ff 8a-	.	.
16c-	.	.	.	.
16B-	.	8bb--J 8gg-X 8b--	.	.
16A-JJ	.	.	.	.
=211	=211	=211	=211	=211
*ped	*	*	*	*
16E-LL 16EE-	.	8bb-XL 8ggn 8b-X	.	.
16A-	.	.	.	.
16B-	.	8ccc-X 8aa- 8cc-X	.	.
16c-X	.	.	.	.
16B-	.	8cccnJ 8aa- 8ccn	.	.
*Xped	*	*	*	*
.	.	.	.	.
16A-JJ	.	.	.	.
*ped	*	*	*	*
16dnLL 16E-	.	8ccc#XL 8aa- 8cc#X	.	.
16A-	.	.	.	.
16B-	.	8dddn 8aa- 8ddn	.	.
16c-	.	.	.	.
16B-	.	8fffJ 8aa- 8ff	.	.
*Xped	*	*	*	*
16A-JJ	.	.	.	[[
=212	=212	=212	=212	=212
*	*	*^	*	*
*	*	*8va	*	*	*
*ped	*	*	*	*	*
8E-L 8EE-	.	4eee-/	8ee-\L	.	ff
8e- 8d- 8B- 8G	.	.	8ddd- 8bb- 8gg	.	.
8gJ 8d- 8B-	.	4ryy	8fffJ 8ff	.	.
*clefG2	*	*	*	*	*
8b-L 8g 8e- 8d-	.	.	8ggg\L 8eee-\ 8ddd-\ 8gg\	.	.
8g 8e- 8d- 8B-	.	4ryy	8aaa- 8aa-	.	.
8e-J 8d- 8B- 8G	.	.	8bbb-J 8bb-	.	.
*Xped	*	*	*	*	*
.	.	.	.	.	.
*clefF4	*	*	*	*	*
*	*	*v	*v	*	*
!!LO:LB:g=original
=213	=213	=213	=213	=213
*	*	*^	*	*
*ped	*	*	*	*	*
8AA-L 8AAA-	.	4cccc/	8cccc\L 8ccc\	.	.
*clefG2	*	*	*	*	*
8e- 8A-	.	.	8aaa- 8eee-	.	.
8a-J 8c	.	8ryy	8ffffJ 8fff	.	.
8ccL 8a- 8e-	.	4eeee-/	8eeee-\L 8eee-\	.	.
8ee- 8a-	.	.	8cccc 8aaa-	.	.
*Xped	*	*	*	*	*
8aa-J 8cc	.	8ryy	8ddddnJ 8dddn	.	.
*clefF4	*	*	*	*	*
*	*	*v	*v	*	*
=214	=214	=214	=214	=214
*ped	*	*	*	*
8E-L 8EE-	.	8dddd-XL N[<8ggg 8ddd-X	.	.
8d- 8E-	.	8cccc 8ccc	.	.
8e-J 8G	.	8bbb-J 8bb-	.	.
.	.	8qcccc/	.	.
8gL 8d-	.	8bbb-L 8gggN] 8bb-	.	.
8e- 8G	.	8aaan 8fff#X 8aan	.	.
*Xped	*	*	*	*
8d-J 8E-	.	8bbb-J 8ggg 8bb-	.	.
=215	=215	=215	=215	=215
*ped	*	*	*	*
8A-L 8AA-	.	8ccccL 8aaa- 8ccc	.	.
8c 8E-	.	8aaa- 8aa-	.	.
8e-J 8A-	.	8fffnJ 8ffn	.	.
*	*	*X8va	*	*
!	!	!LO:TX:a:t=loco.	!	!
8cL 8E-	.	8eee-L 8ee-	.	.
8e- 8A-	.	8ccc 8cc	.	.
*Xped	*	*	*	*
!	!	!LO:TX:t=P:diminuendolike accent:problem	!	!
8CJk 8c	.	8ffJk) 8f^<	.	.
=216	=216	=216	=216	=216
*	*	*^	*	*
*	*	*	*	*	*^
!	!	!	!	!	!	!LO:HP:b=2
8cL 8C	.	4ee-	(>8ee- 8e-L	.	<	>
8B- 8BB-	.	.	8dd- 8g	.	.	.
8A-J 8AA-	.	8ryy	8ffJ 8dd- 8f	.	.	.
8G/L 8GG/	.	4.ryy	8ggL 8ee- 8dd- 8g	.	.	.
8F 8FF	.	.	8aa- 8ee- 8dd- 8a-	.	.	.
8E-J 8EE-	.	.	8bb-J 8ee- 8dd- 8b-)	.	[	]
*	*	*	*	*	*v	*v
=217	=217	=217	=217	=217	=217
*ped	*	*	*	*	*
8AA-L 8AAA-	.	4ccc	(>8ccc 8ccL	.	.
.	.	.	.	.	<
(8c 8E-	.	.	8aa- 8ee-	.	.
8e-J 8A-	.	8ryy	8fffJ 8ff	.	.
4a- 4c)	.	4eee-	8eee- 8ee-L	.	.
.	.	.	8ccc 8aa-	.	[
*Xped	*	*	*	*	*
.	.	.	.	.	.
8r	.	8ryy	8dddnJ 8ddn	.	.
!!LO:PB:g=original
=218	=218	=218	=218	=218	=218
*ped	*	*	*	*	*
!	!	!	!	!	!LO:HP:b=2
(>8E-L 8EE-	.	4.gg	8ddd-XL 8dd-X	.	<
8e- 8E-	.	.	8ccc 8cc	.	.
8enJ 8G	.	.	8bb-J 8b-	.	[
.	.	.	8qccc/	.	.
8fL 8d-	.	4.ryy	8bb-L 8gg 8b-	.	.
8e-X 8G	.	.	8aan 8ff#X 8an	.	.
*Xped	*	*	*	*	*
.	.	.	.	.	.
8d-J 8E-)	.	.	8bb-J) 8gg 8b-	.	.
=219	=219	=219	=219	=219	=219
*ped	*	*	*	*	*
!	!	!	!	!	!LO:HP:b=2
(>8A-L 8AA-	.	4.ryy	(>8bbnL 8gg 8bn	.	<
8c 8E-	.	.	8ccc 8aa-X 8cc	.	.
8e-J 8A-	.	.	8fffJ 8eee- 8ff	.	.
4a- 4c)	.	4eee-/	8eee-\L 8ee-\	.	[
.	.	.	8ccc 8aa-	.	.
*Xped	*	*	*	*	*
8r	.	8ryy	8dddn\J 8ddn\	.	.
=220	=220	=220	=220	=220	=220
*ped	*	*	*	*	*
!	!	!	!	!	!LO:HP:b=2
8E-L 8EE-'	.	4.gg	8ddd-XL 8dd-X	.	<
(>8e- 8E-	.	.	8ccc 8cc	.	.
8enJ 8G	.	.	8bb-J 8aa- 8b-	.	[
.	.	.	8qccc/	.	.
8fL 8d-	.	4.ryy	8bb-L 8gg 8b-	.	.
8e-X 8G	.	.	8aan 8ff#X 8an	.	.
8d-J 8E-)	.	.	8bb-J 8gg 8b-	.	.
*	*	*v	*v	*	*
=221	=221	=221	=221	=221
*ped	*	*	*	*
(>8DnL 8DDn	.	8bb-L 8gg 8b-	.	.
8c-X 8D	.	8ccc-X 8aa-X 8cc-X)	.	.
8fJ 8A-	.	16r	.	.
*	*	*8va	*	*
.	.	16aaa-Jk 16ccc- 16aa-	.	.
8a-L 8c-)	.	8aaa-L 8ccc- 8aa-	.	.
(>8f 8A-	.	8aaa- 8ccc- 8aa-	.	.
*Xped	*	*	*	*
8c-J 8D)	.	[>8aaa-J 8ccc- 8aa-	.	.
=222	=222	=222	=222	=222
*ped	*	*	*	*
8D-XL 8DD-X	.	8aaa-L] 8ccc-X 8aa-	.	.
(>8B- 8D-	.	8ggg 8bb- 8gg	.	.
8enJ 8G	.	16r	.	.
*	*	*X8va	*	*
!	!	!LO:TX:a:t=loco.	!	!
.	.	(>16bb-Jk 16gg 16b-	.	.
8B-L 8D-	.	8aanL 8ff#X 8an	.	.
8eJ 8G)	.	8bb- 8gg 8b-)	.	.
*Xped	*	*	*	*
.	.	.	.	.
8r	.	16r	.	.
.	.	(>16gggJk 16bb- 16gg	.	.
!!LO:LB:g=original
=223	=223	=223	=223	=223
*ped	*	*	*	*
8CL 8CC'	.	8gggL 8bb- 8gg	.	.
(>8An 8C	.	8fff#X) 8aan 8ff#X	.	.
8e-J 8F#X	.	16rdd	.	.
.	.	(>16aaJk 16ff# 16an	.	.
8AL 8C	.	8gg#XL 8ee#X 8g#X	.	.
8e-J 8F#)	.	8aa 8ff# 8a)	.	.
*Xped	*	*	*	*
8r	.	16r	.	.
.	.	16fff#Jk 16aa 16ff#	.	.
*ped	*	*	*	*
=224	=224	=224	=224	=224
8BBnL\ 8BBBn\	.	8fff#XL 8aan 8ff#X	.	.
16r	.	16r	.	.
16f#Xk 16Bn 16F#X	.	(>16aak 16dd#X 16bn 16an	.	.
8f#J 8B 8F#	.	8aaJ 8dd# 8b 8a	.	.
8f#L 8B 8F#	.	8aaL 8dd# 8b 8a	.	.
8f# 8B 8F#	.	8bbn 8dd# 8b 8anX	.	.
*Xped	*	*	*	*
8f#J 8B 8F#	.	8ff#J 8dd# 8b 8a	.	.
=225	=225	=225	=225	=225
*ped	*	*	*	*
8EEnL	.	8ff#XL 8dd#X 8bn 8an	.	.
*Xped	*	*	*	*
.	.	.	.	.
8en 8Bn 8En	.	8gg#X 8een 8g#X	.	.
*Xped	*	*	*	*
8eJ 8B 8E	.	8gg#J 8dd#X 8g#	.	.
8eL 8B 8E	.	8gg#L 8ddn 8g#	.	.
8e 8A#X 8E	.	8aa#X 8a#X	.	.
8eJ 8G#X 8E	.	8bbnJ 8dd 8b	.	.
=226	=226	=226	=226	=226
*ped	*	*	*	*
8E-X 8EE-X	.	(>8ccc 8aan 8ee-X 8cc)	.	.
8cL 8E-	.	/8ee-L 8cc/ 8a-/ 8e-/	.	.
8cJ 8E-	.	8ee-J 8cc 8a- 8e-	.	.
!	!	!LO:TX:a:i:t=stretto_:dur=8q:ext=ud	!	!
!	!	!LO:TX:t=cresc. _:problem:dynamics with extention lines	!	!
!	!	!	!	!LO:HP:i:t=cresc.:ext=ud
8cL 8E-	.	8ee-/L 8cc/ 8a-/ 8e-/	.	<
8c 8E-X	.	8een 8cc 8a- 8en	.	.
8cJ 8E-	.	8eeJ 8cc 8a- 8e	.	.
!!LO:LB:g=original
=227	=227	=227	=227	=227
8cL 8E-X	.	8eenL 8cc 8a- 8en	.	.
*ped	*	*	*	*
8e- 8c 8E-	.	8ff 8cc 8an 8f	.	.
8e-J 8c 8E-	.	8ffJ 8cc 8a 8f	.	.
8e-L 8c 8E-	.	8ffL 8cc 8a 8f	.	.
*Xped	*	*	*	*
8e- 8c 8E-	.	8ff#X 8cc 8a 8f#X	.	.
8e-J 8c 8E-	.	8ff#J 8cc 8a 8f#	.	.
=228	=228	=228	=228	=228
*ped	*	*	*	*
!LO:TX:t=P:mixed beam:problem	!	!	!	!
8EE-/L 8EEE-/	.	8ff#XL 8ee- 8cc 8f#X	.	.
8e-\ 8d-\ 8B-\ 8E-\	.	8gg 8ee- 8dd- 8g	.	.
8e-\J 8d-\ 8B-\ 8E-\	.	8ggJ 8ee- 8dd- 8g	.	.
*Xped	*	*	*	*
.	.	.	.	.
8e-L 8d- 8B- 8E-	.	8ggL 8ee- 8dd- 8g	.	.
*ped	*	*	*	*
8f 8d- 8B-	.	8aa- 8dd- 8a-	.	.
8fJ 8d- 8B-	.	8aa-J 8dd- 8a-	.	.
=229	=229	=229	=229	=229
8fL 8d- 8B-\	.	8aa-L 8dd- 8a-	.	.
*clefG2	*	*	*	*
8a- 8f 8d- 8B-	.	8ccc 8ff 8dd-	.	.
8a-J 8f 8d- 8B-	.	8cccJ 8ff 8dd-	.	.
8a-L 8f 8d- 8B-	.	8cccL 8ff 8dd-	.	.
*Xped	*	*	*	*
.	.	.	.	.
8g 8e- 8B-	.	8bb- 8ee- 8dd-	.	.
8gJ 8e- 8B-	.	8bb-J 8ee- 8dd-)	.	[[
*clefF4	*	*	*	*
=230	=230	=230	=230	=230
.	.	(<8qqc/L	.	.
.	.	8qqe-/	.	.
!	!	!LO:TX:a::i:t=più mosso.	!	!
.	.	8qqa-/	.	.
.	.	8qqcc/J	.	<
*ped	*	*	*	*
8AA-' 8AAA-	.	(>[>4.ccc)	.	.
8r	.	.	.	.
*Xped	*	*	*	*
8e- 8A- 8E-	.	.	.	[>
*ped	*	*	*	*
4.f-X 4.A- 4.F-X	.	16cccLL]	.	.
.	.	16bb-	.	]
.	.	16aa-	.	.
.	.	16gg	.	.
.	.	16aa-	.	.
*Xped	*	*	*	*
.	.	.	.	.
.	.	16ff-XJJ	.	.
!!LO:LB:g=original
=231	=231	=231	=231	=231
*^	*	*	*	*
*ped	*	*	*	*	*
4ryy	(>8AA-L\	.	16ddnLL	.	.
.	.	.	16ffn	.	.
.	8ryy	.	16ee-	.	.
.	.	.	16cc	.	.
!LO:N:vis=4	!	!	!	!	!
8E-J	8E-J	.	16a-	.	.
.	.	.	16fJJ	.	.
4c\	4ryy	.	4e-^>	.	.
*Xped	*	*	*	*	*
.	.	.	.	.	.
8B-\	8ryy	.	8g 8d-X)	.	.
*v	*v	*	*	*	*
=232	=232	=232	=232	=232
.	.	8qqc/L	.	.
.	.	8qqe-/	.	.
.	.	8qqa-/	.	.
.	.	8qqcc/J	.	.
*ped	*	*	*	*
!LO:S:s=1:note:problem:note-level slur	!	!	!	!
8AA-) 8AAA-	.	(>[>4.ccc	.	.
8r	.	.	.	.
*Xped	*	*	*	*
!	!	!	!	!LO:HP:b=2
(>8a-: 8c: 8E-:	.	.	.	<
*ped	*	*	*	*
4.a- 4.c 4.F-X)	.	16cccLL]	.	[
.	.	16bb-	.	.
.	.	16aa-	.	.
*Xped	*	*	*	*
.	.	16gg	.	.
.	.	16aa-	.	.
.	.	16ff-XJJ	.	.
=233	=233	=233	=233	=233
*ped	*	*	*	*
8AA-\L	.	16ddnLL	.	.
.	.	16ffn	.	.
8r	.	16ee-	.	.
.	.	16cc	.	.
(>8E-J	.	16a-	.	.
.	.	16fJJ	.	.
4c\	.	4e-^>	.	.
*Xped	*	*	*	*
8B-\)	.	8g 8d-X)	.	.
=234	=234	=234	=234	=234
*ped	*	*	*	*
!LO:TX:t=P:mixed beam:problem	!	!	!	!
8AAA-'</L	.	(>16cLL\	.	.
.	.	16e-	.	.
8r	.	16a-	.	.
.	.	16ccJ	.	.
(>\8E-J	.	8cccJ	.	.
.	.	16qqddn/LL	.	.
.	.	16qqee-/JJ	.	.
*Xped	*	*	*	*
4a- 4c)	.	4.ee-T)	.	.
8r	.	.	.	.
!!LO:LB:g=original
=235	=235	=235	=235	=235
*ped	*	*	*	*
8AA-L	.	(>16ccLL	.	.
.	.	16ee-	.	.
8rD	.	16aa-	.	.
.	.	16cccJ	.	.
*	*	*8va	*	*
*clefG2	*	*	*	*
(>8e-J	.	8ccccJ	.	.
.	.	16qqdddn/LL	.	.
.	.	16qqeee-/JJ	.	.
4aa- 4cc)	.	4.eee-T)	.	.
8r	.	.	.	.
=236	=236	=236	=236	=236
4cc: 4e-: 4A-:	.	8ccc	.	.
.	.	N(>16ffffLL	.	.
.	.	16eeee-	.	.
8r	.	16cccc	.	.
.	.	16aaa-JJ	.	.
4r	.	16fffLL	.	.
.	.	16eee-	.	.
.	.	16ccc	.	.
.	.	16aa-	.	.
*	*	*X8va	*	*
!	!	!LO:TX:a:t=loco.	!	!
8r	.	16ff	.	.
.	.	16ee-JJ	.	.
*clefF4	*	*	*	*
=237	=237	=237	=237	=237
2.rBB	.	16ccLL/	.	.
.	.	16a-	.	.
.	.	16f	.	.
.	.	16e-	.	.
.	.	16c	.	.
.	.	16A-JJ	.	.
.	.	16F<LL	.	.
.	.	16E-<	.	.
.	.	16C<	.	.
.	.	16AA-<	.	.
.	.	16FF<	.	.
.	.	16EE-<JJ	.	.
=238	=238	=238	=238	=238
4AAA-N)	.	4r	.	.
8r	.	8r	.	.
4.C 4.CC	.	4.cc^< 4.b- 4.en 4.c	.	.
=239	=239	=239	=239	=239
4.F 4.FF	.	4.cc^< 4.a- 4.f 4.c	.	.
4.E- 4.EE-	.	4.ee-X^< 4.dd- 4.g 4.e-X 4.d-	.	.
=240	=240	=240	=240	=240
2.AA-;< 2.AAA-	.	2.aa-^<; 2.cc 2.a-	.	.
!!LO:PB:g=original
==	==	==	==	==
*-	*-	*-	*-	*-
!!title: @{OTL}; @{OPS} @{ONM} publisher: @{PPR}
!!!RDF**kern: > = above
!!!RDF**kern: < = below
!!!RDF**dynam: > = "dim.", fontstyle= "italic"
!!!RDF**dynam: < = "cresc.", fontstyle= "italic"
!!!RDF**kern: N = linked
!!!ENC: Jędrzej Mróz
!!!END: 2019-02-08
!!!EED: Mateusz Mrugas
!!!EST: revision finished 2019-02-12
!!!EED2: Jędrzej Mróz
!!!EST: revision finished 2020-01-12
!!!rism-genre: Ballade
!!!rism-key: A-flat major
!!!rism-opus: op.  47
!!!rism-title: Ballade in A-flat major op.  47
!!!rism-permalink: https://opac.rism.info/search?id=1001013816&View=rism
